!!!!SEGMENT: pl-wtm--r-1564--010_stefani-jozef--stabat-mater-arietta-per-il-alto.krn
!!!cenid: 18xx:2891
!!!COM: Stefani, Józef
!!!COM-rismid: pe30024097
!!!CDT: 1800/04/16-1876/03/19
!!!CNT: Polish
!!!OPR: Stabat Mater
!!!OTL: Arietta per il Alto
!!!OMV: 010
!!!PDT:
!!!AGN: Sacred
!!!SMS-siglum: PL-Wtm
!!!SMS-shelfmark: R 1564
!!!SMS-shelfwork: 001-010 M
!!!SMS-variant:
!!!SMS-altvar:
!!!NIFC-rismid: 1001115293
!!!OMD: Adagio
!!!system-decoration: [(s1,s2)][(s3,s4,s5)][(s6)][(s7,s8)]{(s9,s10)}[(s11)][(s12,s13,s14)][(s15)][(s16,s17)][(s18,s19)][(s20,s21)]{(s22,s23)}
**kern	**dynam	**kern	**dynam	**kern	**kern	**kern	**kern	**kern	**kern	**kern	**text	**dynam	**kern	**dynam	**kern	**dynam	**kern	**dynam	**kern	**kern	**kern	**kern	**kern	**kern	**kern	**dynam	**kern	**kern	**dynam	**kern	**kern	**dynam
*part22	*part22	*part21	*part21	*part20	*part19	*part18	*part17	*part16	*part15	*part14	*part14	*part14	*part13	*part13	*part12	*part12	*part11	*part11	*part10	*part10	*part9	*part8	*part7	*part6	*part5	*part5	*part4	*part3	*part3	*part2	*part1	*part1
*staff23	*	*staff22	*	*staff21	*staff20	*staff19	*staff18	*staff17	*staff16	*staff15	*staff15	*	*staff14	*	*staff13	*	*staff12	*	*staff11	*staff10	*staff9	*staff8	*staff7	*staff6	*staff5	*	*staff4	*staff3	*	*staff2	*staff1	*
*I"C.Basso	*	*I"Violoncello	*	*I"Basso	*I"Bassi	*I"Tenore	*I"Tenori	*I"Soprano	*I"Soprani	*I"Alto solo	*	*	*I"Viole	*	*I"[Violino Secondo]	*	*I"Violini	*	*I"Arpa	*	*I"Timpani in F.C.	*	*I"Tromboni	*I"Trombe	*I"Fagotti	*	*I"in F Corni	*I"in C Clarinetti	*	*I"Oboe	*I"Flauto e Oboe	*
*I'cb	*	*I'vlc	*	*I'B.	*I'B	*I'T.	*I'T	*I'S.	*I'S	*I'A s	*	*	*I'vla	*	*I'[vl 2]	*	*I'vl	*	*I'Ar.	*	*I'timp	*I'[trb 2]	*I'trb	*I'tr	*I'fag	*	*I'cor in F	*I'cl in C	*	*I'ob	*I'fl e ob	*
*clefF4	*	*clefF4	*	*clefF4	*clefF4	*clefC4	*clefC4	*clefG2	*clefG2	*clefG2	*	*	*clefC3	*	*clefG2	*	*clefG2	*	*clefF4	*clefG2	*clefF4	*clefF4	*clefC4	*clefG2	*clefF4	*	*clefG2	*clefG2	*	*clefG2	*clefG2	*
*ITrd0c0	*	*	*	*	*	*	*	*	*	*	*	*	*	*	*	*	*	*	*	*	*	*	*	*	*	*	*ITrd4c7	*	*	*	*	*
*k[b-]	*	*k[b-]	*	*k[b-]	*k[b-]	*k[b-]	*k[b-]	*k[b-]	*k[b-]	*k[b-]	*	*	*k[b-]	*	*k[b-]	*	*k[b-]	*	*k[b-]	*k[b-]	*k[b-]	*k[b-]	*k[b-]	*k[b-]	*k[b-]	*	*k[b-]	*k[b-]	*	*k[b-]	*k[b-]	*
*F:	*	*F:	*	*F:	*F:	*F:	*F:	*F:	*F:	*F:	*	*	*F:	*	*F:	*	*F:	*	*F:	*F:	*F:	*F:	*F:	*F:	*F:	*	*F:	*F:	*	*F:	*F:	*
*M4/4	*	*M4/4	*	*M4/4	*M4/4	*M4/4	*M4/4	*M4/4	*M4/4	*M4/4	*	*	*M4/4	*	*M4/4	*	*M4/4	*	*M4/4	*M4/4	*M4/4	*M4/4	*M4/4	*M4/4	*M4/4	*	*M4/4	*M4/4	*	*M4/4	*M4/4	*
*met(c)	*	*met(c)	*	*met(c)	*met(c)	*met(c)	*met(c)	*met(c)	*met(c)	*met(c)	*	*	*met(c)	*	*met(c)	*	*met(c)	*	*met(c)	*met(c)	*met(c)	*met(c)	*met(c)	*met(c)	*met(c)	*	*met(c)	*met(c)	*	*met(c)	*met(c)	*
*	*	*	*	*	*	*	*	*	*	*	*	*	*	*	*	*	*	*	*	*	*	*	*	*	*^	*	*	*	*	*	*	*
*	*	*2\right	*	*	*	*	*	*	*	*	*	*	*2\right	*	*2\right	*	*2\right	*	*	*	*	*	*	*	*2\right	*	*	*	*2\right	*	*	*2\right	*
!!LO:TX:a:t=P:problem:all\right:global
8r	.	(8A\	p	8ryy	8ryy	8ryy	8ryy	8ryy	8ryy	8r	.	.	(8A/	p	(8f/	<	(8cc\	p <	8ryy	8ryy	8ryy	8ryy	8ryy	8ryy	(8A\	8r	.	8ryy	8dd 8g/	.	8ryy	(8ccc 8ff\	p <
=1	=1	=1	=1	=1	=1	=1	=1	=1	=1	=1	=1	=1	=1	=1	=1	=1	=1	=1	=1	=1	=1	=1	=1	=1	=1	=1	=1	=1	=1	=1	=1	=1	=1
*2\right	*	*	*	*	*	*	*	*	*	*	*	*	*	*	*	*	*	*	*	*	*	*	*	*	*	*2\right	*	*	*	*	*	*	*
2r	.	4B-\)	.	1ryy	1ryy	1ryy	1ryy	1ryy	1ryy	1r	.	.	4B-/)	.	4f/)	.	4dd\)	.	1ryy	1ryy	1ryy	1ryy	1ryy	1ryy	4B-\)	2r	.	1ryy	4dd 4g/	.	1ryy	4ddd 4ff\)	.
.	.	8r	.	.	.	.	.	.	.	.	.	.	8r	.	8r	[	8r	[	.	.	.	.	.	.	8r	.	.	.	8r	.	.	8r	[ <
.	.	(8G#X\	.	.	.	.	.	.	.	.	.	.	(8G#X/	.	8f/	.	(8bn\	<	.	.	.	.	.	.	8G#X/	.	.	.	8bn 8g/	.	.	(8bbn 8ff\	.
4r	.	4A\)	.	.	.	.	.	.	.	.	.	.	4A/)	.	4f/	.	4cc\)	.	.	.	.	.	.	.	4A/	4r	.	.	4cc 4f/	.	.	4ccc 4ff\)	[
8r	.	8r	.	.	.	.	.	.	.	.	.	.	8r	.	8r	.	8r	[	.	.	.	.	.	.	8r	8r	.	.	8r	.	.	8r	.
(8BB-/	.	(8B-\	p	.	.	.	.	.	.	.	.	.	(8d\	.	(8g/	.	(8b-X/	.	.	.	.	.	.	.	8r	8B- 8BB-\	.	.	(8b-X (8g/	.	.	(8bb-X (8gg\	.
=2	=2	=2	=2	=2	=2	=2	=2	=2	=2	=2	=2	=2	=2	=2	=2	=2	=2	=2	=2	=2	=2	=2	=2	=2	=2	=2	=2	=2	=2	=2	=2	=2	=2
8C/)	.	8c\)	.	1ryy	1ryy	1ryy	1ryy	1ryy	1ryy	1r	.	.	8c\)	.	8f/)	.	8a/)	.	1ryy	1ryy	1ryy	1ryy	1ryy	1ryy	8r	8c 8C\	.	1ryy	8a 8f/))	.	1ryy	8aa 8ff\))	.
8r	.	(8c\L	<	.	.	.	.	.	.	.	.	.	8r	.	8r	.	8r	.	.	.	.	.	.	.	(8c/L	8r	.	.	8r	.	.	8r	.
4r	.	8d-X\	[ >	.	.	.	.	.	.	.	.	.	4r	.	4r	.	4r	.	.	.	.	.	.	.	8d-X/	4r	.	.	4r	.	.	4r	.
.	.	8c\J)	]	.	.	.	.	.	.	.	.	.	.	.	.	.	.	.	.	.	.	.	.	.	8c/J)	.	.	.	.	.	.	.	.
8C/	.	8r	.	.	.	.	.	.	.	.	.	.	8c\	.	8e/	.	8g/	.	.	.	.	.	.	.	8r	8C\	.	.	8g 8e/	.	.	8gg 8ee\	.
8r	.	(8c\L	.	.	.	.	.	.	.	.	.	.	8r	.	8r	.	8r	.	.	.	.	.	.	.	(8c/L	8r	.	.	8r	.	.	8r	.
4r	.	8B-\	.	.	.	.	.	.	.	.	.	.	4r	.	4r	.	4r	.	.	.	.	.	.	.	8B-/	4r	.	.	4r	.	.	4r	.
.	.	8A\J)	.	.	.	.	.	.	.	.	.	.	.	.	.	.	.	.	.	.	.	.	.	.	8G/J)	.	.	.	.	.	.	.	.
!!LO:LB:g=original
=3	=3	=3	=3	=3	=3	=3	=3	=3	=3	=3	=3	=3	=3	=3	=3	=3	=3	=3	=3	=3	=3	=3	=3	=3	=3	=3	=3	=3	=3	=3	=3	=3	=3
*	*	*clefC4	*	*	*	*	*	*	*	*	*	*	*	*	*	*	*	*	*	*	*	*	*	*	*	*	*	*	*	*	*	*	*
8F\	.	4c\	p	1ryy	1ryy	1ryy	1ryy	1ryy	1ryy	4c/	Fac	.	8F/	.	16r	.	2r	.	1ryy	1ryy	1ryy	1ryy	1ryy	1ryy	8F/	8F\	.	1ryy	1r	.	1ryy	2r	.
.	.	.	.	.	.	.	.	.	.	.	.	.	.	.	(16A/LL	.	.	.	.	.	.	.	.	.	.	.	.	.	.	.	.	.	.
8r	.	.	.	.	.	.	.	.	.	.	.	.	8r	.	16c/	.	.	.	.	.	.	.	.	.	8r	8ryy	.	.	.	.	.	.	.
.	.	.	.	.	.	.	.	.	.	.	.	.	.	.	16f/JJ)	.	.	.	.	.	.	.	.	.	.	.	.	.	.	.	.	.	.
8F\	.	(8.A\L	.	.	.	.	.	.	.	(8.A/L	me	.	8F/	.	16r	.	.	.	.	.	.	.	.	.	4r	4ryy	.	.	.	.	.	.	.
.	.	.	.	.	.	.	.	.	.	.	.	.	.	.	(16A/LL	.	.	.	.	.	.	.	.	.	.	.	.	.	.	.	.	.	.
8r	.	.	.	.	.	.	.	.	.	.	.	.	8r	.	16c/	.	.	.	.	.	.	.	.	.	.	.	.	.	.	.	.	.	.
.	.	16f\Jk)	.	.	.	.	.	.	.	16f/Jk)	.	.	.	.	16f/JJ)	.	.	.	.	.	.	.	.	.	.	.	.	.	.	.	.	.	.
8C/	.	(4f\	>	.	.	.	.	.	.	4f/	cru-	.	8C/	.	16r	.	(4ff\	p >	.	.	.	.	.	.	2r	2ryy	.	.	.	.	.	(4fff (4ff\	p >
.	.	.	.	.	.	.	.	.	.	.	.	.	.	.	(16G/LL	.	.	.	.	.	.	.	.	.	.	.	.	.	.	.	.	.	.
8r	.	.	.	.	.	.	.	.	.	.	.	.	8r	.	16B-/	.	.	.	.	.	.	.	.	.	.	.	.	.	.	.	.	.	.
.	.	.	.	.	.	.	.	.	.	.	.	.	.	.	16f/JJ)	.	.	.	.	.	.	.	.	.	.	.	.	.	.	.	.	.	.
8C/	.	8e\)	]	.	.	.	.	.	.	8e/	-ce	.	8c\	.	16r	.	8ee\)	]	.	.	.	.	.	.	.	.	.	.	.	.	.	8eee 8ee\))	]
.	.	.	.	.	.	.	.	.	.	.	.	.	.	.	(16G/LL	.	.	.	.	.	.	.	.	.	.	.	.	.	.	.	.	.	.
8r	.	8r	.	.	.	.	.	.	.	8r	.	.	8r	.	16B-/	.	8r	.	.	.	.	.	.	.	.	.	.	.	.	.	.	8r	.
.	.	.	.	.	.	.	.	.	.	.	.	.	.	.	16e/JJ)	.	.	.	.	.	.	.	.	.	.	.	.	.	.	.	.	.	.
*	*	*	*	*	*	*	*	*	*	*	*	*	*	*	*	*	*	*	*	*	*	*	*	*	*v	*v	*	*	*	*	*	*	*
=4	=4	=4	=4	=4	=4	=4	=4	=4	=4	=4	=4	=4	=4	=4	=4	=4	=4	=4	=4	=4	=4	=4	=4	=4	=4	=4	=4	=4	=4	=4	=4	=4
8E\	.	(8.d\L	.	1ryy	1ryy	1ryy	1ryy	1ryy	1ryy	(8.d/L	sub	.	8E/	.	16r	.	2r	.	1ryy	1ryy	1ryy	1ryy	1ryy	1ryy	1r	.	1ryy	1r	.	1ryy	2r	.
.	.	.	.	.	.	.	.	.	.	.	.	.	.	.	(16B-/LL	.	.	.	.	.	.	.	.	.	.	.	.	.	.	.	.	.
8r	.	.	.	.	.	.	.	.	.	.	.	.	8r	.	16c/	.	.	.	.	.	.	.	.	.	.	.	.	.	.	.	.	.
.	.	32e\LL	.	.	.	.	.	.	.	32e/LL	.	.	.	.	16g/JJ)	.	.	.	.	.	.	.	.	.	.	.	.	.	.	.	.	.
.	.	32d\JJJ)	.	.	.	.	.	.	.	32d/JJJ)	.	.	.	.	.	.	.	.	.	.	.	.	.	.	.	.	.	.	.	.	.	.
8E\	.	(8c\L	.	.	.	.	.	.	.	(8c/L	le-	.	8E/	.	16r	.	.	.	.	.	.	.	.	.	.	.	.	.	.	.	.	.
.	.	.	.	.	.	.	.	.	.	.	.	.	.	.	(16B-/LL	.	.	.	.	.	.	.	.	.	.	.	.	.	.	.	.	.
8r	.	8B-\J)	.	.	.	.	.	.	.	8B-/J)	.	.	8r	.	16c/	.	.	.	.	.	.	.	.	.	.	.	.	.	.	.	.	.
.	.	.	.	.	.	.	.	.	.	.	.	.	.	.	16g/JJ)	.	.	.	.	.	.	.	.	.	.	.	.	.	.	.	.	.
8F\	.	(8.c\L	.	.	.	.	.	.	.	(8.c/L	-va-	.	8F/	.	16r	.	(8.cc/L	.	.	.	.	.	.	.	.	.	.	.	.	.	(8.cccL (8.cc\	.
.	.	.	.	.	.	.	.	.	.	.	.	.	.	.	(16A/LL	.	.	.	.	.	.	.	.	.	.	.	.	.	.	.	.	.
8r	.	.	.	.	.	.	.	.	.	.	.	.	8r	.	16c/	.	.	.	.	.	.	.	.	.	.	.	.	.	.	.	.	.
.	.	16B-\Jk	.	.	.	.	.	.	.	16B-/Jk)	.	.	.	.	16f/JJ)	.	16b-/Jk	.	.	.	.	.	.	.	.	.	.	.	.	.	16bb-Jk 16b-\)	.
8F\	.	8A\)	.	.	.	.	.	.	.	8A/	-ri	.	8F/	.	16r	.	8a/)	.	.	.	.	.	.	.	.	.	.	.	.	.	8aa 8a\)	.
.	.	.	.	.	.	.	.	.	.	.	.	.	.	.	(16A/LL	.	.	.	.	.	.	.	.	.	.	.	.	.	.	.	.	.
8r	.	8r	.	.	.	.	.	.	.	8r	.	.	8r	.	16c/	.	8r	.	.	.	.	.	.	.	.	.	.	.	.	.	8r	.
.	.	.	.	.	.	.	.	.	.	.	.	.	.	.	16f/JJ)	.	.	.	.	.	.	.	.	.	.	.	.	.	.	.	.	.
=5	=5	=5	=5	=5	=5	=5	=5	=5	=5	=5	=5	=5	=5	=5	=5	=5	=5	=5	=5	=5	=5	=5	=5	=5	=5	=5	=5	=5	=5	=5	=5	=5
*	*	*	*	*	*	*	*	*	*	*	*	*	*	*	*	*	*	*	*	*	*	*	*	*	*^	*	*	*^	*	*	*	*
*	*	*clefF4	*	*	*	*	*	*	*	*	*	*	*	*	*	*	*	*	*	*	*	*	*	*	*	*	*	*	*	*	*	*	*	*
!	!	!	!	!	!	!	!	!	!	!	!	!	!	!	!	!	!	!	!	!	!	!	!	!	!	!	!	!	!	!	!	!	!LO:TX:a:Bi:t=Oboe	!
8F\	.	8F\	.	1ryy	1ryy	1ryy	1ryy	1ryy	1ryy	4f/	mor-	.	8r	.	16r	.	8r	.	1ryy	1ryy	1ryy	1ryy	1ryy	1ryy	4F/	4F\	<	1ryy	(2cc/	(2a\	p	1ryy	4ff\	p <
.	.	.	.	.	.	.	.	.	.	.	.	.	.	.	(16A/LL	.	.	.	.	.	.	.	.	.	.	.	.	.	.	.	.	.	.	.
8r	.	8r	.	.	.	.	.	.	.	.	.	.	8A/	<	16c/	.	8f/	<	.	.	.	.	.	.	.	.	.	.	.	.	.	.	.	.
.	.	.	.	.	.	.	.	.	.	.	.	.	.	.	16f/JJ)	.	.	.	.	.	.	.	.	.	.	.	.	.	.	.	.	.	.	.
8D\	.	8D\	.	.	.	.	.	.	.	4f#X/	-te	.	8r	.	16r	.	8r	.	.	.	.	.	.	.	4F#X/	4D\	.	.	.	.	.	.	(4ff#X\	.
.	.	.	.	.	.	.	.	.	.	.	.	.	.	.	(16A/LL	.	.	.	.	.	.	.	.	.	.	.	.	.	.	.	.	.	.	.
8r	.	8r	.	.	.	.	.	.	.	.	.	.	8A/	.	16c/	.	8f#X/	.	.	.	.	.	.	.	.	.	.	.	.	.	.	.	.	.
.	.	.	.	.	.	.	.	.	.	.	.	.	.	.	16f#X/JJ)	.	.	.	.	.	.	.	.	.	.	.	.	.	.	.	.	.	.	.
8BB-/	.	8BB-/	.	.	.	.	.	.	.	(8.g/L	Chri-	.	8r	[	16r	.	8r	.	.	.	.	.	.	.	2ryy	([4G 4BB-\	[	.	4.dd/)	4.b-\)	.	.	4gg\	.
.	.	.	.	.	.	.	.	.	.	.	.	.	.	.	(16B-/LL	.	.	.	.	.	.	.	.	.	.	.	.	.	.	.	.	.	.	.
8r	.	8r	.	.	.	.	.	.	.	.	.	.	8B-/	.	16d/	.	8g/	.	.	.	.	.	.	.	.	.	.	.	.	.	.	.	.	.
.	.	.	.	.	.	.	.	.	.	16b-/Jk)	.	.	.	.	16g/JJ)	.	.	.	.	.	.	.	.	.	.	.	.	.	.	.	.	.	.	.
8GG/	.	8GG/	.	.	.	.	.	.	.	8b-/	-sti	.	8r	.	16r	.	8r	[	.	.	.	.	.	.	.	8G] 8GG\)	.	.	.	.	.	.	8bb-\)	[
.	.	.	.	.	.	.	.	.	.	.	.	.	.	.	(16B-/LL	.	.	.	.	.	.	.	.	.	.	.	.	.	.	.	.	.	.	.
8r	.	8r	.	.	.	.	.	.	.	8r	.	.	8G/	.	16d/	.	8b-/	.	.	.	.	.	.	.	.	8ryy	.	.	8r	8ryy	.	.	8r	.
.	.	.	.	.	.	.	.	.	.	.	.	.	.	.	16g/JJ)	.	.	.	.	.	.	.	.	.	.	.	.	.	.	.	.	.	.	.
!!LO:PB:g=original
*	*	*	*	*	*	*	*	*	*	*	*	*	*	*	*	*	*	*	*	*	*	*	*	*	*	*	*	*	*v	*v	*	*	*	*
=6	=6	=6	=6	=6	=6	=6	=6	=6	=6	=6	=6	=6	=6	=6	=6	=6	=6	=6	=6	=6	=6	=6	=6	=6	=6	=6	=6	=6	=6	=6	=6	=6	=6
(8C/L	.	(8C/L	.	1ryy	1ryy	1ryy	1ryy	1ryy	1ryy	4e/	con-	.	8r	.	8r	.	8r	.	1ryy	1ryy	1ryy	1ryy	1ryy	1ryy	1r	1r	.	1ryy	1r	.	1ryy	1r	.
8BB-/J	.	8BB-/J	.	.	.	.	.	.	.	.	.	.	8G/	.	8c/	.	8e/	.	.	.	.	.	.	.	.	.	.	.	.	.	.	.	.
8AA/L)	.	8AA/L)	.	.	.	.	.	.	.	(8f/L	-ser-	.	16r	.	16r	.	16r	.	.	.	.	.	.	.	.	.	.	.	.	.	.	.	.
.	.	.	.	.	.	.	.	.	.	.	.	.	16A/	.	16c/	.	16f/	.	.	.	.	.	.	.	.	.	.	.	.	.	.	.	.
8FF/J	.	8FF/J	.	.	.	.	.	.	.	8a/J)	.	.	16r	.	16r	.	16r	.	.	.	.	.	.	.	.	.	.	.	.	.	.	.	.
.	.	.	.	.	.	.	.	.	.	.	.	.	16c\	.	16f/	.	16a/	.	.	.	.	.	.	.	.	.	.	.	.	.	.	.	.
8C/	.	8C/	.	.	.	.	.	.	.	4a/	-va-	.	8r	.	8r	.	8r	.	.	.	.	.	.	.	.	.	.	.	.	.	.	.	.
8r	.	8r	.	.	.	.	.	.	.	.	.	.	8c\	.	8f/	.	8a/	.	.	.	.	.	.	.	.	.	.	.	.	.	.	.	.
8C/	.	8C/	.	.	.	.	.	.	.	8g/	-ri	.	8r	.	8r	.	8r	.	.	.	.	.	.	.	.	.	.	.	.	.	.	.	.
8r	.	8r	.	.	.	.	.	.	.	8r	.	.	8c\	.	8e/	.	8g/	.	.	.	.	.	.	.	.	.	.	.	.	.	.	.	.
=7	=7	=7	=7	=7	=7	=7	=7	=7	=7	=7	=7	=7	=7	=7	=7	=7	=7	=7	=7	=7	=7	=7	=7	=7	=7	=7	=7	=7	=7	=7	=7	=7	=7
*	*	*	*	*	*	*	*	*	*	*	*	*	*	*	*	*	*	*	*	*	*	*	*	*	*	*	*	*	*^	*	*	*^	*
8BBn/	sf	8BBn/	sf	1ryy	1ryy	1ryy	1ryy	1ryy	1ryy	4.g/	cum-	.	8r	.	16r	.	8r	.	1ryy	1ryy	1ryy	1ryy	1ryy	1ryy	2G/	2BBn\	.	1ryy	4.g/	1r	.	1ryy	4.gg/	1r	p
.	.	.	.	.	.	.	.	.	.	.	.	.	.	.	16G/LL	.	.	.	.	.	.	.	.	.	.	.	.	.	.	.	.	.	.	.	.
8r	.	8r	.	.	.	.	.	.	.	.	.	.	8G/	sf	16d/	.	8g/	sf	.	.	.	.	.	.	.	.	.	.	.	.	.	.	.	.	.
.	.	.	.	.	.	.	.	.	.	.	.	.	.	.	16f/JJ	.	.	.	.	.	.	.	.	.	.	.	.	.	.	.	.	.	.	.	.
8BB/	p	8BB/	p	.	.	.	.	.	.	.	.	.	8r	.	16r	.	8r	p	.	.	.	.	.	.	.	.	.	.	.	.	.	.	.	.	.
.	.	.	.	.	.	.	.	.	.	.	.	.	.	.	16G/LL	.	.	.	.	.	.	.	.	.	.	.	.	.	.	.	.	.	.	.	.
8r	.	8r	.	.	.	.	.	.	.	8g/	-me	.	8G/	p	16d/	.	8f/	.	.	.	.	.	.	.	.	.	.	.	8f/	.	.	.	8ff/	.	.
.	.	.	.	.	.	.	.	.	.	.	.	.	.	.	16f/JJ	.	.	.	.	.	.	.	.	.	.	.	.	.	.	.	.	.	.	.	.
8C/	.	8C/	.	.	.	.	.	.	.	8.e/L	la-	.	8r	.	16r	.	8r	.	.	.	.	.	.	.	2ryy	8G 8C\	.	.	8.e/L	.	.	.	8.ee/L	.	.
.	.	.	.	.	.	.	.	.	.	.	.	.	.	.	16G/LL	.	.	.	.	.	.	.	.	.	.	.	.	.	.	.	.	.	.	.	.
8r	.	8r	.	.	.	.	.	.	.	.	.	.	8G/	.	16c/	.	8e/	.	.	.	.	.	.	.	.	8r	.	.	.	.	.	.	.	.	.
.	.	.	.	.	.	.	.	.	.	16a/Jk	.	.	.	.	16e/JJ	.	.	.	.	.	.	.	.	.	.	.	.	.	16a/Jk	.	.	.	16aa/Jk	.	.
8C/	.	8C/	.	.	.	.	.	.	.	4g/	-ra	.	8r	.	16r	.	8r	.	.	.	.	.	.	.	.	4r	.	.	4g/	.	.	.	4gg/	.	.
.	.	.	.	.	.	.	.	.	.	.	.	.	.	.	16G/LL	.	.	.	.	.	.	.	.	.	.	.	.	.	.	.	.	.	.	.	.
8r	.	8r	.	.	.	.	.	.	.	.	.	.	8G/	.	16c/	.	8g/	.	.	.	.	.	.	.	.	.	.	.	.	.	.	.	.	.	.
.	.	.	.	.	.	.	.	.	.	.	.	.	.	.	16e/JJ	.	.	.	.	.	.	.	.	.	.	.	.	.	.	.	.	.	.	.	.
=8	=8	=8	=8	=8	=8	=8	=8	=8	=8	=8	=8	=8	=8	=8	=8	=8	=8	=8	=8	=8	=8	=8	=8	=8	=8	=8	=8	=8	=8	=8	=8	=8	=8	=8	=8
8GG/	.	8GG/	.	1ryy	1ryy	1ryy	1ryy	1ryy	1ryy	8.dd\	cum-	.	8r	.	16r	.	8r	.	1ryy	1ryy	1ryy	1ryy	1ryy	1ryy	2G/	4GG\	.	1ryy	8.dd/L	1r	.	1ryy	(8.ddd/L	1r	.
.	.	.	.	.	.	.	.	.	.	.	.	.	.	.	(16G/LL	.	.	.	.	.	.	.	.	.	.	.	.	.	.	.	.	.	.	.	.
8r	.	8r	.	.	.	.	.	.	.	.	.	.	8G/	.	16Bn/	.	(16dd\LL	.	.	.	.	.	.	.	.	.	.	.	.	.	.	.	.	.	.
.	.	.	.	.	.	.	.	.	.	16bn\	-me	.	.	.	16f/JJ)	.	16bn\JJ)	.	.	.	.	.	.	.	.	.	.	.	16bn/Jk	.	.	.	16bbn/Jk)	.	.
8BBn/	.	8BBn/	.	.	.	.	.	.	.	(16a/LL	la-	.	8r	.	16r	.	8r	.	.	.	.	.	.	.	.	4BBn\	.	.	16a/LL	.	.	.	(16aa/LL	.	.
.	.	.	.	.	.	.	.	.	.	16g/JJ)	.	.	.	.	(16G/LL	.	.	.	.	.	.	.	.	.	.	.	.	.	16g/JJ	.	.	.	16gg/JJ)	.	.
8r	.	8r	.	.	.	.	.	.	.	(16f/LL	-ri	.	8G/	.	16d/	.	(16ff\LL	.	.	.	.	.	.	.	.	.	.	.	16f/LL	.	.	.	(16ff/LL	.	.
.	.	.	.	.	.	.	.	.	.	16d/JJ)	.	.	.	.	16f/JJ)	.	16dd\JJ)	.	.	.	.	.	.	.	.	.	.	.	16d/JJ	.	.	.	16dd/JJ)	.	.
8C/	.	8C/	.	.	.	.	.	.	.	8.d#X/	gra-	.	8r	.	16r	.	(8.dd#X\L	.	.	.	.	.	.	.	2ryy	4.G 4.C\	.	.	8.d#X/L	.	.	.	(8.dd#X/L	.	.
.	.	.	.	.	.	.	.	.	.	.	.	.	.	.	(16G/LL	.	.	.	.	.	.	.	.	.	.	.	.	.	.	.	.	.	.	.	.
8r	.	8r	.	.	.	.	.	.	.	.	.	.	8G/	.	16c/	.	.	.	.	.	.	.	.	.	.	.	.	.	.	.	.	.	.	.	.
.	.	.	.	.	.	.	.	.	.	16e/	-ti-	.	.	.	16e/JJ)	.	16ee\Jk)	.	.	.	.	.	.	.	.	.	.	.	16e/Jk	.	.	.	16ee/Jk)	.	.
8C/	.	8C/	.	.	.	.	.	.	.	8e/	-a	.	8r	.	16r	.	8ee\	.	.	.	.	.	.	.	.	.	.	.	8e/	.	.	.	8ee/	.	.
.	.	.	.	.	.	.	.	.	.	.	.	.	.	.	(16G/LL	.	.	.	.	.	.	.	.	.	.	.	.	.	.	.	.	.	.	.	.
8r	.	8r	.	.	.	.	.	.	.	16g/	Fac	.	8G/	.	16c/	.	8r	.	.	.	.	.	.	.	.	8r	.	.	8r	.	.	.	8r	.	.
.	.	.	.	.	.	.	.	.	.	16cc\	me	.	.	.	16e/JJ)	.	.	.	.	.	.	.	.	.	.	.	.	.	.	.	.	.	.	.	.
!!LO:LB:g=original
*	*	*	*	*	*	*	*	*	*	*	*	*	*	*	*	*	*	*	*	*	*	*	*	*	*v	*v	*	*	*	*	*	*	*	*	*
=9	=9	=9	=9	=9	=9	=9	=9	=9	=9	=9	=9	=9	=9	=9	=9	=9	=9	=9	=9	=9	=9	=9	=9	=9	=9	=9	=9	=9	=9	=9	=9	=9	=9	=9
8D\	.	8D\	.	1ryy	1ryy	1ryy	1ryy	1ryy	1ryy	8cc\	cru-	.	8r	.	16r	.	8cc'\	.	1ryy	1ryy	1ryy	1ryy	1ryy	1ryy	1r	.	1ryy	8cc/	1r	.	1ryy	8ccc\	1r	.
.	.	.	.	.	.	.	.	.	.	.	.	.	.	.	(16G/LL	.	.	.	.	.	.	.	.	.	.	.	.	.	.	.	.	.	.	.
8r	.	8r	.	.	.	.	.	.	.	4bn\	-ce	.	8G/	.	16Bn/	.	4bn'\	.	.	.	.	.	.	.	.	.	.	4bn/	.	.	.	4bbn\	.	.
.	.	.	.	.	.	.	.	.	.	.	.	.	.	.	16f/JJ)	.	.	.	.	.	.	.	.	.	.	.	.	.	.	.	.	.	.	.
8D\	.	8D\	.	.	.	.	.	.	.	.	.	.	8r	.	16r	.	.	.	.	.	.	.	.	.	.	.	.	.	.	.	.	.	.	.
.	.	.	.	.	.	.	.	.	.	.	.	.	.	.	(16G/LL	.	.	.	.	.	.	.	.	.	.	.	.	.	.	.	.	.	.	.
8r	.	8r	.	.	.	.	.	.	.	16g/	sub	.	8G/	.	16B/	.	8r	.	.	.	.	.	.	.	.	.	.	8r	.	.	.	8r	.	.
.	.	.	.	.	.	.	.	.	.	16dd\	le-	.	.	.	16f/JJ)	.	.	.	.	.	.	.	.	.	.	.	.	.	.	.	.	.	.	.
8E\	.	8E\	.	.	.	.	.	.	.	8dd\	-va-	.	8r	.	16r	.	8dd'\L	.	.	.	.	.	.	.	.	.	.	8dd/L	.	.	.	8ddd\L	.	.
.	.	.	.	.	.	.	.	.	.	.	.	.	.	.	(16G/LL	.	.	.	.	.	.	.	.	.	.	.	.	.	.	.	.	.	.	.
8r	.	8r	.	.	.	.	.	.	.	8cc\	-ri	.	8G/	.	16c/	.	8cc'\J	.	.	.	.	.	.	.	.	.	.	8cc/J	.	.	.	8ccc\J	.	.
.	.	.	.	.	.	.	.	.	.	.	.	.	.	.	16g/JJ)	.	.	.	.	.	.	.	.	.	.	.	.	.	.	.	.	.	.	.
16F\	.	16F\	.	.	.	.	.	.	.	(16dd\LL	mor-	.	16r	.	16r	.	4r	.	.	.	.	.	.	.	.	.	.	4r	.	.	.	4r	.	.
16r	.	16r	.	.	.	.	.	.	.	16cc\JJ)	.	.	16A/	.	16d 16c/	.	.	.	.	.	.	.	.	.	.	.	.	.	.	.	.	.	.	.
16F#X\	.	16F#X\	.	.	.	.	.	.	.	(16b\LL	-te	.	16r	.	16r	.	.	.	.	.	.	.	.	.	.	.	.	.	.	.	.	.	.	.
16r	.	16r	.	.	.	.	.	.	.	16a\JJ)	.	.	16A/	.	16e-X 16c/	.	.	.	.	.	.	.	.	.	.	.	.	.	.	.	.	.	.	.
=10	=10	=10	=10	=10	=10	=10	=10	=10	=10	=10	=10	=10	=10	=10	=10	=10	=10	=10	=10	=10	=10	=10	=10	=10	=10	=10	=10	=10	=10	=10	=10	=10	=10	=10
8G\	.	8G\	.	1ryy	1ryy	1ryy	1ryy	1ryy	1ryy	8.g/	Chri-	.	8r	.	16r	.	2r	.	1ryy	1ryy	1ryy	1ryy	1ryy	1ryy	1r	.	1ryy	2r	1r	.	1ryy	2r	1r	.
.	.	.	.	.	.	.	.	.	.	.	.	.	.	.	(16G/LL	.	.	.	.	.	.	.	.	.	.	.	.	.	.	.	.	.	.	.
8r	.	8r	.	.	.	.	.	.	.	.	.	.	8G/	.	16c/	.	.	.	.	.	.	.	.	.	.	.	.	.	.	.	.	.	.	.
.	.	.	.	.	.	.	.	.	.	16e/	-sti	.	.	.	16en/JJ)	.	.	.	.	.	.	.	.	.	.	.	.	.	.	.	.	.	.	.
8GG/	.	8GG/	.	.	.	.	.	.	.	8.d/	con-	.	8r	.	16r	.	.	.	.	.	.	.	.	.	.	.	.	.	.	.	.	.	.	.
.	.	.	.	.	.	.	.	.	.	.	.	.	.	.	(16G/LL	.	.	.	.	.	.	.	.	.	.	.	.	.	.	.	.	.	.	.
8r	.	8r	.	.	.	.	.	.	.	.	.	.	8G/	.	16Bn/	.	.	.	.	.	.	.	.	.	.	.	.	.	.	.	.	.	.	.
.	.	.	.	.	.	.	.	.	.	16g/	-ser-	.	.	.	16f/JJ)	.	.	.	.	.	.	.	.	.	.	.	.	.	.	.	.	.	.	.
8C/	.	8C/	.	.	.	.	.	.	.	8d#X/	-va-	.	8r	.	16r	.	8dd#X'\	.	.	.	.	.	.	.	.	.	.	8dd#X/	.	.	.	8ddd#X\	.	.
.	.	.	.	.	.	.	.	.	.	.	.	.	.	.	(16G/LL	.	.	.	.	.	.	.	.	.	.	.	.	.	.	.	.	.	.	.
8r	.	8r	.	.	.	.	.	.	.	4e/	-ri	.	8G/	.	16c/	.	4ee'\	.	.	.	.	.	.	.	.	.	.	4ee/	.	.	.	4eee\	.	.
.	.	.	.	.	.	.	.	.	.	.	.	.	.	.	16e/JJ)	.	.	.	.	.	.	.	.	.	.	.	.	.	.	.	.	.	.	.
8C/	.	8C/	.	.	.	.	.	.	.	.	.	.	8r	.	16r	.	.	.	.	.	.	.	.	.	.	.	.	.	.	.	.	.	.	.
.	.	.	.	.	.	.	.	.	.	.	.	.	.	.	(16G/LL	.	.	.	.	.	.	.	.	.	.	.	.	.	.	.	.	.	.	.
8r	.	8r	.	.	.	.	.	.	.	16g/	cum-	.	8G/	.	16c/	.	8r	.	.	.	.	.	.	.	.	.	.	8r	.	.	.	8r	.	.
.	.	.	.	.	.	.	.	.	.	16cc\	-me-	.	.	.	16e/JJ)	.	.	.	.	.	.	.	.	.	.	.	.	.	.	.	.	.	.	.
=11	=11	=11	=11	=11	=11	=11	=11	=11	=11	=11	=11	=11	=11	=11	=11	=11	=11	=11	=11	=11	=11	=11	=11	=11	=11	=11	=11	=11	=11	=11	=11	=11	=11	=11
8D\	.	8D\	.	1ryy	1ryy	1ryy	1ryy	1ryy	1ryy	8cc\	-la-	.	8r	.	16r	.	8cc\	.	1ryy	1ryy	1ryy	1ryy	1ryy	1ryy	1r	.	1ryy	8cc/	1r	.	1ryy	8ccc\	1r	.
.	.	.	.	.	.	.	.	.	.	.	.	.	.	.	(16G/LL	.	.	.	.	.	.	.	.	.	.	.	.	.	.	.	.	.	.	.
8r	.	8r	.	.	.	.	.	.	.	4bn\	-ri	.	8G/	.	16Bn/	.	4bn\	.	.	.	.	.	.	.	.	.	.	4bn/	.	.	.	4bbn\	.	.
.	.	.	.	.	.	.	.	.	.	.	.	.	.	.	16f/JJ)	.	.	.	.	.	.	.	.	.	.	.	.	.	.	.	.	.	.	.
8D\	.	8D\	.	.	.	.	.	.	.	.	.	.	8r	.	16r	.	.	.	.	.	.	.	.	.	.	.	.	.	.	.	.	.	.	.
.	.	.	.	.	.	.	.	.	.	.	.	.	.	.	(16G/LL	.	.	.	.	.	.	.	.	.	.	.	.	.	.	.	.	.	.	.
8r	.	8r	.	.	.	.	.	.	.	16g/	cum-	.	8G/	.	16B/	.	8r	.	.	.	.	.	.	.	.	.	.	8r	.	.	.	8r	.	.
.	.	.	.	.	.	.	.	.	.	16dd\	-me-	.	.	.	16f/JJ)	.	.	.	.	.	.	.	.	.	.	.	.	.	.	.	.	.	.	.
8E\	.	8E\	.	.	.	.	.	.	.	8dd\	-la-	.	8r	.	16r	.	8dd'\L	.	.	.	.	.	.	.	.	.	.	8dd/L	.	.	.	8ddd\L	.	.
.	.	.	.	.	.	.	.	.	.	.	.	.	.	.	16G/LL	.	.	.	.	.	.	.	.	.	.	.	.	.	.	.	.	.	.	.
8r	.	8r	.	.	.	.	.	.	.	8cc\	-ri	.	8G/	.	16c/	.	8cc'\J	.	.	.	.	.	.	.	.	.	.	8cc/J	.	.	.	8ccc\J	.	.
.	.	.	.	.	.	.	.	.	.	.	.	.	.	.	16g/JJ	.	.	.	.	.	.	.	.	.	.	.	.	.	.	.	.	.	.	.
16F\	.	16F\	.	.	.	.	.	.	.	(16dd\LL	cum-	.	16r	.	16r	.	4r	.	.	.	.	.	.	.	.	.	.	4r	.	.	.	4r	.	.
16r	.	16r	.	.	.	.	.	.	.	16cc\JJ)	.	.	16A 16F/	.	16d 16c/	.	.	.	.	.	.	.	.	.	.	.	.	.	.	.	.	.	.	.
!	!	!	!	!	!	!	!	!	!	!LO:TUP:a:problem:klamra łukowa	!	!	!	!	!	!	!	!	!	!	!	!	!	!	!	!	!	!	!	!	!	!	!	!
16F#X\	.	16F#X\	.	.	.	.	.	.	.	24bn\LL	-me-	.	16r	.	16r	.	.	.	.	.	.	.	.	.	.	.	.	.	.	.	.	.	.	.
.	.	.	.	.	.	.	.	.	.	24cc\	.	.	.	.	.	.	.	.	.	.	.	.	.	.	.	.	.	.	.	.	.	.	.	.
16r	.	16r	.	.	.	.	.	.	.	.	.	.	16A 16F#X/	.	16e-X 16c/	.	.	.	.	.	.	.	.	.	.	.	.	.	.	.	.	.	.	.
.	.	.	.	.	.	.	.	.	.	24a\JJ	.	.	.	.	.	.	.	.	.	.	.	.	.	.	.	.	.	.	.	.	.	.	.	.
!!LO:PB:g=original
*	*	*	*	*	*	*	*	*	*	*	*	*	*	*	*	*	*	*	*	*	*	*	*	*	*	*	*	*v	*v	*	*	*v	*v	*
=12	=12	=12	=12	=12	=12	=12	=12	=12	=12	=12	=12	=12	=12	=12	=12	=12	=12	=12	=12	=12	=12	=12	=12	=12	=12	=12	=12	=12	=12	=12	=12	=12
8G\	.	8G\	.	1ryy	1ryy	1ryy	1ryy	1ryy	1ryy	(16g/KL	-la-	.	8r	.	16r	.	2r	.	1ryy	1ryy	1ryy	1ryy	1ryy	1ryy	1ryy	.	1ryy	1ryy	.	1ryy	1ryy	.
.	.	.	.	.	.	.	.	.	.	8cc/J)	.	.	.	.	(16G/LL	.	.	.	.	.	.	.	.	.	.	.	.	.	.	.	.	.
8r	.	8r	.	.	.	.	.	.	.	.	.	.	8G/	.	16c/	.	.	.	.	.	.	.	.	.	.	.	.	.	.	.	.	.
.	.	.	.	.	.	.	.	.	.	16e/	-ri	.	.	.	16e/JJ)	.	.	.	.	.	.	.	.	.	.	.	.	.	.	.	.	.
8GG/	.	8GG/	.	.	.	.	.	.	.	(8a/L	gra-	.	8r	.	16r	.	.	.	.	.	.	.	.	.	.	.	.	.	.	.	.	.
.	.	.	.	.	.	.	.	.	.	.	.	.	.	.	(16G/LL	.	.	.	.	.	.	.	.	.	.	.	.	.	.	.	.	.
8r	.	8r	.	.	.	.	.	.	.	8g/J)	.	.	8G/	.	16Bn/	.	.	.	.	.	.	.	.	.	.	.	.	.	.	.	.	.
.	.	.	.	.	.	.	.	.	.	.	.	.	.	.	16f/JJ)	.	.	.	.	.	.	.	.	.	.	.	.	.	.	.	.	.
8C/	.	8C/	.	.	.	.	.	.	.	(8f/L	-ti-	.	8r	.	16r	.	4r	.	.	.	.	.	.	.	.	.	.	.	.	.	.	.
.	.	.	.	.	.	.	.	.	.	.	.	.	.	.	(16G/LL	.	.	.	.	.	.	.	.	.	.	.	.	.	.	.	.	.
8r	.	8r	.	.	.	.	.	.	.	8d/J)	.	.	8G/	.	16c/	.	.	.	.	.	.	.	.	.	.	.	.	.	.	.	.	.
.	.	.	.	.	.	.	.	.	.	.	.	.	.	.	16e/JJ)	.	.	.	.	.	.	.	.	.	.	.	.	.	.	.	.	.
8C/	.	8C/	.	.	.	.	.	.	.	8c/	-a	.	8r	.	16r	.	8r	.	.	.	.	.	.	.	.	.	.	.	.	.	.	.
.	.	.	.	.	.	.	.	.	.	.	.	.	.	.	(16G/LL	.	.	.	.	.	.	.	.	.	.	.	.	.	.	.	.	.
*	*	*clefC4	*	*	*	*	*	*	*	*	*	*	*	*	*	*	*	*	*	*	*	*	*	*	*	*	*	*	*	*	*	*
8r	.	8c\	.	.	.	.	.	.	.	8r	.	.	8G/	.	16c/	.	(8cc\	.	.	.	.	.	.	.	.	.	.	.	.	.	.	.
.	.	.	.	.	.	.	.	.	.	.	.	.	.	.	16e/JJ)	.	.	.	.	.	.	.	.	.	.	.	.	.	.	.	.	.
=13	=13	=13	=13	=13	=13	=13	=13	=13	=13	=13	=13	=13	=13	=13	=13	=13	=13	=13	=13	=13	=13	=13	=13	=13	=13	=13	=13	=13	=13	=13	=13	=13
8C/	.	8a-X\	.	1ryy	1ryy	1ryy	1ryy	1ryy	1ryy	(4.a-X/	Fac	.	8r	.	16r	.	8aa-X\)	.	1ryy	1ryy	1ryy	1ryy	1ryy	1ryy	1ryy	.	1ryy	1ryy	.	1ryy	1ryy	.
.	.	.	.	.	.	.	.	.	.	.	.	.	.	.	(16A-X/LL	.	.	.	.	.	.	.	.	.	.	.	.	.	.	.	.	.
8r	.	4a-\	.	.	.	.	.	.	.	.	.	.	8c\	.	16c/	.	4aa-^\	.	.	.	.	.	.	.	.	.	.	.	.	.	.	.
.	.	.	.	.	.	.	.	.	.	.	.	.	.	.	16f/JJ)	.	.	.	.	.	.	.	.	.	.	.	.	.	.	.	.	.
8C/	.	.	.	.	.	.	.	.	.	.	.	.	8r	.	16r	.	.	.	.	.	.	.	.	.	.	.	.	.	.	.	.	.
.	.	.	.	.	.	.	.	.	.	.	.	.	.	.	(16A-/LL	.	.	.	.	.	.	.	.	.	.	.	.	.	.	.	.	.
8r	.	(16g\LL	.	.	.	.	.	.	.	16g/LL	me	.	8c\	.	16c/	.	(16gg\LL	.	.	.	.	.	.	.	.	.	.	.	.	.	.	.
.	.	16f\JJ)	.	.	.	.	.	.	.	16f/JJ)	.	.	.	.	16f/JJ)	.	16ff\JJ)	.	.	.	.	.	.	.	.	.	.	.	.	.	.	.
8C/	.	8e\	.	.	.	.	.	.	.	8e/	cru-	.	8r	.	16r	.	8ee\	.	.	.	.	.	.	.	.	.	.	.	.	.	.	.
.	.	.	.	.	.	.	.	.	.	.	.	.	.	.	(16G/LL	.	.	.	.	.	.	.	.	.	.	.	.	.	.	.	.	.
8r	.	4g\	.	.	.	.	.	.	.	4g/	-ce	.	8c\	.	16c/	.	4gg^\	.	.	.	.	.	.	.	.	.	.	.	.	.	.	.
.	.	.	.	.	.	.	.	.	.	.	.	.	.	.	16e/JJ)	.	.	.	.	.	.	.	.	.	.	.	.	.	.	.	.	.
8C/	.	.	.	.	.	.	.	.	.	.	.	.	8r	.	16r	.	.	.	.	.	.	.	.	.	.	.	.	.	.	.	.	.
.	.	.	.	.	.	.	.	.	.	.	.	.	.	.	(16G/LL	.	.	.	.	.	.	.	.	.	.	.	.	.	.	.	.	.
8r	.	8r	.	.	.	.	.	.	.	(16cc\LL	sub-	.	8c\	.	16c/	.	(16ccc\LL	.	.	.	.	.	.	.	.	.	.	.	.	.	.	.
.	.	.	.	.	.	.	.	.	.	16b-\JJ)	.	.	.	.	16e/JJ)	.	16bb-\JJ)	.	.	.	.	.	.	.	.	.	.	.	.	.	.	.
=14	=14	=14	=14	=14	=14	=14	=14	=14	=14	=14	=14	=14	=14	=14	=14	=14	=14	=14	=14	=14	=14	=14	=14	=14	=14	=14	=14	=14	=14	=14	=14	=14
*	*	*	*	*	*	*	*	*	*	*	*	*	*	*	*	*	*	*	*	*	*	*	*	*	*	*	*	*	*	*	*^	*
8C/	.	([4a-X\	.	1ryy	1ryy	1ryy	1ryy	1ryy	1ryy	(4a-X/	-le-	.	8r	.	16r	.	([4aa-X\	.	1ryy	1ryy	1ryy	1ryy	1ryy	1ryy	1r	.	1ryy	1r	.	1ryy	2r	1r	.
.	.	.	.	.	.	.	.	.	.	.	.	.	.	.	(16A-X/LL	.	.	.	.	.	.	.	.	.	.	.	.	.	.	.	.	.	.
8r	.	.	.	.	.	.	.	.	.	.	.	.	8c\	.	16c/	.	.	.	.	.	.	.	.	.	.	.	.	.	.	.	.	.	.
.	.	.	.	.	.	.	.	.	.	.	.	.	.	.	16f/JJ)	.	.	.	.	.	.	.	.	.	.	.	.	.	.	.	.	.	.
8C/	.	16a-\LL]	.	.	.	.	.	.	.	16a-/LL	.	.	8r	.	16r	.	16aa-\LL]	.	.	.	.	.	.	.	.	.	.	.	.	.	.	.	.
.	.	32b-\L	.	.	.	.	.	.	.	32b-/L	.	.	.	.	(16A-/LL	.	32bb-\L	.	.	.	.	.	.	.	.	.	.	.	.	.	.	.	.
.	.	32a-\J	.	.	.	.	.	.	.	32a-/J	.	.	.	.	.	.	32aa-\J	.	.	.	.	.	.	.	.	.	.	.	.	.	.	.	.
8r	.	16g\	.	.	.	.	.	.	.	16g/	.	.	8c\	.	16c/	.	16gg\	.	.	.	.	.	.	.	.	.	.	.	.	.	.	.	.
.	.	16f\JJ	.	.	.	.	.	.	.	16f/JJ)	.	.	.	.	16f/JJ)	.	16ff\JJ)	.	.	.	.	.	.	.	.	.	.	.	.	.	.	.	.
8C/	.	4.c\)	.	.	.	.	.	.	.	4cc\	-va-	.	8r	.	16r	.	4.cc\	.	.	.	.	.	.	.	.	.	.	.	.	.	4r	.	.
.	.	.	.	.	.	.	.	.	.	.	.	.	.	.	(16G/LL	.	.	.	.	.	.	.	.	.	.	.	.	.	.	.	.	.	.
8r	.	.	.	.	.	.	.	.	.	.	.	.	8c\	.	16c/	.	.	.	.	.	.	.	.	.	.	.	.	.	.	.	.	.	.
.	.	.	.	.	.	.	.	.	.	.	.	.	.	.	16e/JJ)	.	.	.	.	.	.	.	.	.	.	.	.	.	.	.	.	.	.
8C/	.	.	.	.	.	.	.	.	.	8cc\	-ri	.	8r	.	16r	.	.	.	.	.	.	.	.	.	.	.	.	.	.	.	8r	.	.
.	.	.	.	.	.	.	.	.	.	.	.	.	.	.	(16G/LL	.	.	.	.	.	.	.	.	.	.	.	.	.	.	.	.	.	.
8r	.	8r	.	.	.	.	.	.	.	8cc\	mor-	.	8c\	.	16c/	.	8cc\	.	.	.	.	.	.	.	.	.	.	.	.	.	8ccc/	.	.
.	.	.	.	.	.	.	.	.	.	.	.	.	.	.	16e/JJ)	.	.	.	.	.	.	.	.	.	.	.	.	.	.	.	.	.	.
!!LO:LB:g=original
=15	=15	=15	=15	=15	=15	=15	=15	=15	=15	=15	=15	=15	=15	=15	=15	=15	=15	=15	=15	=15	=15	=15	=15	=15	=15	=15	=15	=15	=15	=15	=15	=15	=15
(8B-\L	.	(8B-\L	.	1ryy	1ryy	1ryy	1ryy	1ryy	1ryy	(8.dd-Xt\L	.	.	4B-/	.	4f/	.	(8.ddT\L	.	1ryy	1ryy	1ryy	1ryy	1ryy	1ryy	1r	.	1ryy	1r	.	1ryy	(8.ddd-Xt\L	1r	.
8A-X\J)	.	8A-X\J)	.	.	.	.	.	.	.	.	.	.	.	.	.	.	.	.	.	.	.	.	.	.	.	.	.	.	.	.	.	.	.
.	.	.	.	.	.	.	.	.	.	32cc\LL	.	.	.	.	.	.	32cc\LL	.	.	.	.	.	.	.	.	.	.	.	.	.	32ccc\LL	.	.
.	.	.	.	.	.	.	.	.	.	32dd-\JJJ	.	.	.	.	.	.	32dd\JJJ)	.	.	.	.	.	.	.	.	.	.	.	.	.	32ddd-\JJJ)	.	.
8.Gt\L	.	8.Gt/L	.	.	.	.	.	.	.	8ee\)	.	.	(4B-/	.	2e-X/	.	8ee\L	.	.	.	.	.	.	.	.	.	.	.	.	.	(8eee\L	.	.
.	.	.	.	.	.	.	.	.	.	8dd-\	-te	.	.	.	.	.	8dd'\J	.	.	.	.	.	.	.	.	.	.	.	.	.	8ddd-\J)	.	.
(32F\LL	.	(32F/LL	.	.	.	.	.	.	.	.	.	.	.	.	.	.	.	.	.	.	.	.	.	.	.	.	.	.	.	.	.	.	.
32G\JJJ	.	32G/JJJ	.	.	.	.	.	.	.	.	.	.	.	.	.	.	.	.	.	.	.	.	.	.	.	.	.	.	.	.	.	.	.
8A-\L)	.	8A-/L)	.	.	.	.	.	.	.	(8.cct\L	Chri-	.	4A-X/)	.	.	.	(8.ccT\L	.	.	.	.	.	.	.	.	.	.	.	.	.	(8.ccct\L	.	.
8G'\J	.	8G'/J	.	.	.	.	.	.	.	.	.	.	.	.	.	.	.	.	.	.	.	.	.	.	.	.	.	.	.	.	.	.	.
.	.	.	.	.	.	.	.	.	.	32b-\LL	.	.	.	.	.	.	32b-\LL	.	.	.	.	.	.	.	.	.	.	.	.	.	32bb-\LL	.	.
.	.	.	.	.	.	.	.	.	.	32cc\JJJ	.	.	.	.	.	.	32cc\JJJ	.	.	.	.	.	.	.	.	.	.	.	.	.	32ccc\JJJ)	.	.
8.FT\L	.	8.FT/L	.	.	.	.	.	.	.	8dd-\)	.	.	(4A-/	.	[4d-X/	.	8dd\L)	.	.	.	.	.	.	.	.	.	.	.	.	.	(8ddd-\L	.	.
.	.	.	.	.	.	.	.	.	.	8cc\	-sti	.	.	.	.	.	8cc'\J	.	.	.	.	.	.	.	.	.	.	.	.	.	8ccc\J)	.	.
(32E-X\LL	.	(32E-X/LL	.	.	.	.	.	.	.	.	.	.	.	.	.	.	.	.	.	.	.	.	.	.	.	.	.	.	.	.	.	.	.
32F\JJJ	.	32F/JJJ	.	.	.	.	.	.	.	.	.	.	.	.	.	.	.	.	.	.	.	.	.	.	.	.	.	.	.	.	.	.	.
=16	=16	=16	=16	=16	=16	=16	=16	=16	=16	=16	=16	=16	=16	=16	=16	=16	=16	=16	=16	=16	=16	=16	=16	=16	=16	=16	=16	=16	=16	=16	=16	=16	=16
*	*	*	*	*	*	*	*	*	*	*	*	*	*	*	*	*	*	*	*	*	*	*	*	*	*^	*	*	*^	*	*	*	*	*
(8G\L)	.	(8G/L)	.	1ryy	1ryy	1ryy	1ryy	1ryy	1ryy	(8.b-T/L	con-	.	4G/)	.	4d-/]	.	(8.b-T\L	.	1ryy	1ryy	1ryy	1ryy	1ryy	1ryy	2r	2ryy	.	1ryy	2r	2ryy	.	1ryy	(8.bb-T\L	2r	.
8F\J)	.	8F/J)	.	.	.	.	.	.	.	.	.	.	.	.	.	.	.	.	.	.	.	.	.	.	.	.	.	.	.	.	.	.	.	.	.
.	.	.	.	.	.	.	.	.	.	32a/LL	.	.	.	.	.	.	32a\LL	.	.	.	.	.	.	.	.	.	.	.	.	.	.	.	32aa\LL	.	.
.	.	.	.	.	.	.	.	.	.	32b-/JJJ	.	.	.	.	.	.	32b-\JJJ	.	.	.	.	.	.	.	.	.	.	.	.	.	.	.	32bb-\JJJ)	.	.
(8.Ent\L	.	(8.Ent/L	.	.	.	.	.	.	.	8cc\)	.	.	(4G/	.	[4c/	.	8cc\L)	.	.	.	.	.	.	.	.	.	.	.	.	.	.	.	8ccc\L	.	.
.	.	.	.	.	.	.	.	.	.	8b-\	-ser-	.	.	.	.	.	8b-'\J	.	.	.	.	.	.	.	.	.	.	.	.	.	.	.	8bb-\J	.	.
32D\LL	.	32D/LL	.	.	.	.	.	.	.	.	.	.	.	.	.	.	.	.	.	.	.	.	.	.	.	.	.	.	.	.	.	.	.	.	.
32E\JJJ	.	32E/JJJ	.	.	.	.	.	.	.	.	.	.	.	.	.	.	.	.	.	.	.	.	.	.	.	.	.	.	.	.	.	.	.	.	.
8F\L)	.	8F/L)	.	.	.	.	.	.	.	(16a/LL	-va-	.	8F/)	.	8c/]	.	16a-X/LL	.	.	.	.	.	.	.	4c/	8F\L	<	.	8a-X/L	2f\	.	.	(16aa-X\LL	2ryy	<
.	.	.	.	.	.	.	.	.	.	32g/L	.	.	.	.	.	.	32g/L	.	.	.	.	.	.	.	.	.	.	.	.	.	.	.	32gg\L	.	.
.	.	.	.	.	.	.	.	.	.	32a/JJJ)	.	.	.	.	.	.	32a-/JJJ	.	.	.	.	.	.	.	.	.	.	.	.	.	.	.	32aa-\J	.	.
(8E-X\	<	(8E-X/	<	.	.	.	.	.	.	(16an/LL	-ri	.	4f\	.	(8c/L	.	16an/LL	<	.	.	.	.	.	.	.	8E-X\	.	.	8an/	.	.	.	16aan\	.	.
.	.	.	.	.	.	.	.	.	.	32g/L	.	.	.	.	.	.	32g/L	.	.	.	.	.	.	.	.	.	.	.	.	.	.	.	32gg\L	.	.
.	.	.	.	.	.	.	.	.	.	32a/JJJ)	.	.	.	.	.	.	32a/JJJ	.	.	.	.	.	.	.	.	.	.	.	.	.	.	.	32aa\JJJ	.	.
8D\	.	8D/	.	.	.	.	.	.	.	16b-|</LL	cum-	.	.	.	8B-/	.	16b-/LL	.	.	.	.	.	.	.	8B-/L	8D\	.	.	8b-/	.	.	.	16bb-\LL	.	.
.	.	.	.	.	.	.	.	.	.	(32a/L	-me-	.	.	.	.	.	32a/L	.	.	.	.	.	.	.	.	.	.	.	.	.	.	.	32aa\L	.	.
.	.	.	.	.	.	.	.	.	.	32b-/JJJ)	.	.	.	.	.	.	32b-/JJJ	.	.	.	.	.	.	.	.	.	.	.	.	.	.	.	32bb-\J	.	.
8D-X\J	[[	8D-X/J	[[	.	.	.	.	.	.	16bn|</LL	-la-	.	8f\	.	8Bn/J)	.	16bn/LL	.	.	.	.	.	.	.	8Bn/J	8D-X\J	.	.	8bn/J	.	.	.	16bbn\	.	.
.	.	.	.	.	.	.	.	.	.	(32a/L	.	.	.	.	.	.	32a/L	.	.	.	.	.	.	.	.	.	.	.	.	.	.	.	32aa\L	.	.
.	.	.	.	.	.	.	.	.	.	32b/JJJ)	-ri	.	.	.	.	.	32b/JJJ	[[	.	.	.	.	.	.	.	.	.	.	.	.	.	.	32bb\JJJ	.	.
*	*	*	*	*	*	*	*	*	*	*	*	*	*	*	*	*	*	*	*	*	*	*	*	*	*v	*v	*	*	*v	*v	*	*	*v	*v	*
=17	=17	=17	=17	=17	=17	=17	=17	=17	=17	=17	=17	=17	=17	=17	=17	=17	=17	=17	=17	=17	=17	=17	=17	=17	=17	=17	=17	=17	=17	=17	=17	=17
16C'/LL)	.	16C'/LL)	.	1ryy	1ryy	1ryy	1ryy	1ryy	1ryy	16cc\	gra-	.	16e'\LL	.	8c'/	.	8cc\	f	1ryy	1ryy	1ryy	1ryy	1ryy	1ryy	8c 8C\	[ f	1ryy	8cc 8e/	.	1ryy	8ccc\)	[
(32C/L	.	(32C/L	.	.	.	.	.	.	.	16c/	-ti-	.	(32c\L	.	.	.	.	.	.	.	.	.	.	.	.	.	.	.	.	.	.	.
32BBn/JJJ)	.	32BBn/JJJ)	.	.	.	.	.	.	.	.	.	.	32Bn\JJJ)	.	.	.	.	.	.	.	.	.	.	.	.	.	.	.	.	.	.	.
16C'/LL	.	16C'/LL	.	.	.	.	.	.	.	16c/	a	.	16c'\LL	.	8r	.	8r	.	.	.	.	.	.	.	8r	.	.	8r	.	.	8r	.
(32C/L	.	(32C/L	.	.	.	.	.	.	.	16r	.	.	(32c\L	.	.	.	.	.	.	.	.	.	.	.	.	.	.	.	.	.	.	.
32BB/JJJ)	.	32BB/JJJ)	.	.	.	.	.	.	.	.	.	.	32B\JJJ)	.	.	.	.	.	.	.	.	.	.	.	.	.	.	.	.	.	.	.
16C'/LL	.	16C'/LL	.	.	.	.	.	.	.	4r	.	.	16c'\LL	.	4r	.	4r	.	.	.	.	.	.	.	4r	.	.	4r	.	.	4r	.
(32C/L	.	(32C/L	.	.	.	.	.	.	.	.	.	.	(32c\L	.	.	.	.	.	.	.	.	.	.	.	.	.	.	.	.	.	.	.
32BB/JJJ)	.	32BB/JJJ)	.	.	.	.	.	.	.	.	.	.	32B\JJJ)	.	.	.	.	.	.	.	.	.	.	.	.	.	.	.	.	.	.	.
16C'/LL	.	16C'/LL	.	.	.	.	.	.	.	.	.	.	16c'\LL	.	.	.	.	.	.	.	.	.	.	.	.	.	.	.	.	.	.	.
16C'/JJ	.	16C'/JJ	.	.	.	.	.	.	.	.	.	.	16c'\JJ	.	.	.	.	.	.	.	.	.	.	.	.	.	.	.	.	.	.	.
16D-X'/LL	.	16D-X'/LL	.	.	.	.	.	.	.	4.ff\	mor-	.	16f'\LL	.	16f'/LL	.	(4.ff\	.	.	.	.	.	.	.	2d-X 2D-X\	.	.	4r	.	.	(4.fff 4.ff\	.
16D-'/	.	16D-'/	.	.	.	.	.	.	.	.	.	.	(32f\L	.	(32f/L	.	.	.	.	.	.	.	.	.	.	.	.	.	.	.	.	.
.	.	.	.	.	.	.	.	.	.	.	.	.	32e\JJJ)	.	32e/JJJ)	.	.	.	.	.	.	.	.	.	.	.	.	.	.	.	.	.
16D-'/	.	16D-'/	.	.	.	.	.	.	.	.	.	.	16f'\LL	.	16f'/LL	.	.	.	.	.	.	.	.	.	.	.	.	.	.	.	.	.
16D-'/JJ	.	16D-'/JJ	.	.	.	.	.	.	.	.	.	.	(32f\L	.	(32f/L	.	.	.	.	.	.	.	.	.	.	.	.	.	.	.	.	.
.	.	.	.	.	.	.	.	.	.	.	.	.	32e\JJJ)	.	32e/JJJ)	.	.	.	.	.	.	.	.	.	.	.	.	.	.	.	.	.
*tremolo	*	*	*	*	*	*	*	*	*	*	*	*	*	*	*	*	*	*	*	*	*	*	*	*	*	*	*	*	*	*	*	*
16D-'/LL	.	16D-'/LL	.	.	.	.	.	.	.	.	.	.	16f'\LL	.	16f'/LL	.	.	.	.	.	.	.	.	.	.	.	.	8r	.	.	.	.
16D-'/	.	16D-'/	.	.	.	.	.	.	.	.	.	.	(32f\L	.	(32f/L	.	.	.	.	.	.	.	.	.	.	.	.	.	.	.	.	.
.	.	.	.	.	.	.	.	.	.	.	.	.	32e\JJJ)	.	32e/JJJ)	.	.	.	.	.	.	.	.	.	.	.	.	.	.	.	.	.
16D-'/	.	16D-'/	.	.	.	.	.	.	.	8bn\	-te	.	16f'\LL	.	16f'/LL	.	8bn\)	.	.	.	.	.	.	.	.	.	.	8bn 8f/	.	.	8bbn 8ff\)	.
16D-'/JJ	.	16D-'/JJ	.	.	.	.	.	.	.	.	.	.	16f'\JJ	.	16f'/JJ	.	.	.	.	.	.	.	.	.	.	.	.	.	.	.	.	.
*Xtremolo	*	*	*	*	*	*	*	*	*	*	*	*	*	*	*	*	*	*	*	*	*	*	*	*	*	*	*	*	*	*	*	*
!!LO:PB:g=original
=18	=18	=18	=18	=18	=18	=18	=18	=18	=18	=18	=18	=18	=18	=18	=18	=18	=18	=18	=18	=18	=18	=18	=18	=18	=18	=18	=18	=18	=18	=18	=18	=18
*	*	*	*	*	*	*	*	*	*	*	*	*	*	*	*	*	*	*	*	*	*	*	*	*	*	*	*	*	*	*	*^	*
16C'/LL	.	16C'/LL	.	1ryy	1ryy	1ryy	1ryy	1ryy	1ryy	4cc\	Chri-	.	16e'\LL	.	8g/	.	(4cc\	.	1ryy	1ryy	1ryy	1ryy	1ryy	1ryy	8c 8C\	.	1ryy	8cc 8e/	.	1ryy	4ccc/	8ee\	.
(32C/L	.	(32C/L	.	.	.	.	.	.	.	.	.	.	(32c\L	.	.	.	.	.	.	.	.	.	.	.	.	.	.	.	.	.	.	.	.
32BBn/JJJ)	.	32BBn/JJJ)	.	.	.	.	.	.	.	.	.	.	32Bn\JJJ)	.	.	.	.	.	.	.	.	.	.	.	.	.	.	.	.	.	.	.	.
16C'/LL	.	16C'/LL	.	.	.	.	.	.	.	.	.	.	16c'\LL	.	8r	.	.	.	.	.	.	.	.	.	8r	.	.	8r	.	.	.	8r	.
(32C/L	.	(32C/L	.	.	.	.	.	.	.	.	.	.	(32c\L	.	.	.	.	.	.	.	.	.	.	.	.	.	.	.	.	.	.	.	.
32BB/JJJ)	.	32BB/JJJ)	.	.	.	.	.	.	.	.	.	.	32B\JJJ)	.	.	.	.	.	.	.	.	.	.	.	.	.	.	.	.	.	.	.	.
16C'/LL	.	16C'/LL	.	.	.	.	.	.	.	8c/	-sti	.	16c'\LL	.	4r	.	8c/)	.	.	.	.	.	.	.	4r	.	.	4r	.	.	8cc/	4r	.
(32C/L	.	(32C/L	.	.	.	.	.	.	.	.	.	.	(32c\L	.	.	.	.	.	.	.	.	.	.	.	.	.	.	.	.	.	.	.	.
32BB/JJJ)	.	32BB/JJJ)	.	.	.	.	.	.	.	.	.	.	32B\JJJ)	.	.	.	.	.	.	.	.	.	.	.	.	.	.	.	.	.	.	.	.
16C'/LL	.	16C'/LL	.	.	.	.	.	.	.	8r	.	.	16c'\LL	.	.	.	8r	.	.	.	.	.	.	.	.	.	.	.	.	.	8r	.	.
16C'/JJ	.	16C'/JJ	.	.	.	.	.	.	.	.	.	.	16c'\JJ	.	.	.	.	.	.	.	.	.	.	.	.	.	.	.	.	.	.	.	.
16D-X'/LL	.	16D-X'/LL	.	.	.	.	.	.	.	8r	.	.	16f'\LL	.	16f'/LL	.	8r	.	.	.	.	.	.	.	(2d-X (2D-X\	.	.	4r	.	.	8r	8ryy	.
16D-'/	.	16D-'/	.	.	.	.	.	.	.	.	.	.	(32f\L	.	(32f/L	.	.	.	.	.	.	.	.	.	.	.	.	.	.	.	.	.	.
.	.	.	.	.	.	.	.	.	.	.	.	.	32e\JJJ)	.	32e/JJJ)	.	.	.	.	.	.	.	.	.	.	.	.	.	.	.	.	.	.
16D-'/	.	16D-'/	.	.	.	.	.	.	.	(8ff\L	con-	.	16f'\LL	.	16f'/LL	.	(8ff\L	.	.	.	.	.	.	.	.	.	.	.	.	.	8fffL 8ff\	4.ryy	.
16D-'/JJ	.	16D-'/JJ	.	.	.	.	.	.	.	.	.	.	(32f\L	.	(32f/L	.	.	.	.	.	.	.	.	.	.	.	.	.	.	.	.	.	.
.	.	.	.	.	.	.	.	.	.	.	.	.	32e\JJJ)	.	32e/JJJ)	.	.	.	.	.	.	.	.	.	.	.	.	.	.	.	.	.	.
16D-'/LL	.	16D-'/LL	.	.	.	.	.	.	.	8aa-X\J)	.	.	16f'\LL	.	16f'/LL	.	8aa-X\	.	.	.	.	.	.	.	.	.	.	8r	.	.	8aaa-X 8aa-X\	.	.
16D-'/	.	16D-'/	.	.	.	.	.	.	.	.	.	.	(32f\L	.	(32f/L	.	.	.	.	.	.	.	.	.	.	.	.	.	.	.	.	.	.
.	.	.	.	.	.	.	.	.	.	.	.	.	32e\JJJ)	.	32e/JJJ)	.	.	.	.	.	.	.	.	.	.	.	.	.	.	.	.	.	.
16D-'/	.	16D-'/	.	.	.	.	.	.	.	8bn\	-ser-	.	16f'\LL	.	16f'/LL	.	8bn\J)	.	.	.	.	.	.	.	.	.	.	8ff 8f\	.	.	8bbnJ 8bn\	.	.
16D-'/JJ	.	16D-'/JJ	.	.	.	.	.	.	.	.	.	.	16f'\JJ	.	16f'/JJ	.	.	.	.	.	.	.	.	.	.	.	.	.	.	.	.	.	.
*	*	*	*	*	*	*	*	*	*	*	*	*	*	*	*	*	*	*	*	*	*	*	*	*	*	*	*	*	*	*	*v	*v	*
=19	=19	=19	=19	=19	=19	=19	=19	=19	=19	=19	=19	=19	=19	=19	=19	=19	=19	=19	=19	=19	=19	=19	=19	=19	=19	=19	=19	=19	=19	=19	=19	=19
8C/	.	8C/	.	1ryy	1ryy	1ryy	1ryy	1ryy	1ryy	8cc\	-va-	.	8e\	.	8g/	.	8cc\	.	1ryy	1ryy	1ryy	1ryy	1ryy	1ryy	8c 8C\))	.	1ryy	8ee 8g\	.	1ryy	8ccc 8cc\	.
8r	.	8r	.	.	.	.	.	.	.	(32bn\LLL	.	.	8r	.	8r	.	8r	.	.	.	.	.	.	.	8r	.	.	8r	.	.	8r	.
.	.	.	.	.	.	.	.	.	.	32cc\	.	.	.	.	.	.	.	.	.	.	.	.	.	.	.	.	.	.	.	.	.	.
.	.	.	.	.	.	.	.	.	.	32b\	.	.	.	.	.	.	.	.	.	.	.	.	.	.	.	.	.	.	.	.	.	.
.	.	.	.	.	.	.	.	.	.	32cc\JJJ	.	.	.	.	.	.	.	.	.	.	.	.	.	.	.	.	.	.	.	.	.	.
4r	.	4r	.	.	.	.	.	.	.	16.dd-X\LL	.	.	4r	.	4r	.	4r	.	.	.	.	.	.	.	4r	.	.	4r	.	.	4r	.
.	.	.	.	.	.	.	.	.	.	32cc\JJk	.	.	.	.	.	.	.	.	.	.	.	.	.	.	.	.	.	.	.	.	.	.
.	.	.	.	.	.	.	.	.	.	32b-X/LLL	.	.	.	.	.	.	.	.	.	.	.	.	.	.	.	.	.	.	.	.	.	.
.	.	.	.	.	.	.	.	.	.	32a-X/	.	.	.	.	.	.	.	.	.	.	.	.	.	.	.	.	.	.	.	.	.	.
.	.	.	.	.	.	.	.	.	.	32g/	.	.	.	.	.	.	.	.	.	.	.	.	.	.	.	.	.	.	.	.	.	.
.	.	.	.	.	.	.	.	.	.	32f/JJJ	.	.	.	.	.	.	.	.	.	.	.	.	.	.	.	.	.	.	.	.	.	.
2r;	.	2r;	.	.	.	.	.	.	.	16e/LL	.	.	2r;	.	2r;	.	2r;	.	.	.	.	.	.	.	2r;	.	.	2r;	.	.	2r;	.
.	.	.	.	.	.	.	.	.	.	16g/JJ)	.	.	.	.	.	.	.	.	.	.	.	.	.	.	.	.	.	.	.	.	.	.
.	.	.	.	.	.	.	.	.	.	16c/	-ri	.	.	.	.	.	.	.	.	.	.	.	.	.	.	.	.	.	.	.	.	.
.	.	.	.	.	.	.	.	.	.	32r	.	.	.	.	.	.	.	.	.	.	.	.	.	.	.	.	.	.	.	.	.	.
.	.	.	.	.	.	.	.	.	.	32c/	ah	.	.	.	.	.	.	.	.	.	.	.	.	.	.	.	.	.	.	.	.	.
.	.	.	.	.	.	.	.	.	.	(8qe-X;/	.	.	.	.	.	.	.	.	.	.	.	.	.	.	.	.	.	.	.	.	.	.
.	.	.	.	.	.	.	.	.	.	8.d-X;/L)	.	.	.	.	.	.	.	.	.	.	.	.	.	.	.	.	.	.	.	.	.	.
.	.	.	.	.	.	.	.	.	.	16c/Jk	.	.	.	.	.	.	.	.	.	.	.	.	.	.	.	.	.	.	.	.	.	.
!!LO:LB:g=original
=20	=20	=20	=20	=20	=20	=20	=20	=20	=20	=20	=20	=20	=20	=20	=20	=20	=20	=20	=20	=20	=20	=20	=20	=20	=20	=20	=20	=20	=20	=20	=20	=20
8F\	p	4c\	.	1ryy	1ryy	1ryy	1ryy	1ryy	1ryy	4c/	Fac	.	8r	p	16r	p	2r	.	1ryy	1ryy	1ryy	1ryy	1ryy	1ryy	1r	.	1ryy	1r	.	1ryy	2r	.
.	.	.	.	.	.	.	.	.	.	.	.	.	.	.	(16A/LL	.	.	.	.	.	.	.	.	.	.	.	.	.	.	.	.	.
8r	.	.	.	.	.	.	.	.	.	.	.	.	8F/	.	16c/	.	.	.	.	.	.	.	.	.	.	.	.	.	.	.	.	.
.	.	.	.	.	.	.	.	.	.	.	.	.	.	.	16f/JJ)	.	.	.	.	.	.	.	.	.	.	.	.	.	.	.	.	.
8F\	.	(8.A\L	.	.	.	.	.	.	.	(8.A/L	me	.	8r	.	16r	.	.	.	.	.	.	.	.	.	.	.	.	.	.	.	.	.
.	.	.	.	.	.	.	.	.	.	.	.	.	.	.	(16A/LL	.	.	.	.	.	.	.	.	.	.	.	.	.	.	.	.	.
8r	.	.	.	.	.	.	.	.	.	.	.	.	8F/	.	16c/	.	.	.	.	.	.	.	.	.	.	.	.	.	.	.	.	.
.	.	16f\Jk)	.	.	.	.	.	.	.	16f/Jk)	.	.	.	.	16f/JJ)	.	.	.	.	.	.	.	.	.	.	.	.	.	.	.	.	.
8C/	.	(4f\	.	.	.	.	.	.	.	(4f/	cru-	.	8r	.	16r	.	(4ff\	p >	.	.	.	.	.	.	.	.	.	.	.	.	(4fff (4ff\	p
.	.	.	.	.	.	.	.	.	.	.	.	.	.	.	(16G/LL	.	.	.	.	.	.	.	.	.	.	.	.	.	.	.	.	.
8r	.	.	.	.	.	.	.	.	.	.	.	.	8C/	.	16B-/	.	.	.	.	.	.	.	.	.	.	.	.	.	.	.	.	.
.	.	.	.	.	.	.	.	.	.	.	.	.	.	.	16f/JJ)	.	.	.	.	.	.	.	.	.	.	.	.	.	.	.	.	.
8C/	.	8e\)	.	.	.	.	.	.	.	8e/)	-ce	.	8r	.	16r	.	8ee\)	]	.	.	.	.	.	.	.	.	.	.	.	.	8eee 8ee\))	.
.	.	.	.	.	.	.	.	.	.	.	.	.	.	.	(16G/LL	.	.	.	.	.	.	.	.	.	.	.	.	.	.	.	.	.
8r	.	8r	.	.	.	.	.	.	.	8r	.	.	8C/	.	16c/	.	8r	.	.	.	.	.	.	.	.	.	.	.	.	.	8r	.
.	.	.	.	.	.	.	.	.	.	.	.	.	.	.	16e/JJ)	.	.	.	.	.	.	.	.	.	.	.	.	.	.	.	.	.
=21	=21	=21	=21	=21	=21	=21	=21	=21	=21	=21	=21	=21	=21	=21	=21	=21	=21	=21	=21	=21	=21	=21	=21	=21	=21	=21	=21	=21	=21	=21	=21	=21
8E\	.	(8.d\L	.	1ryy	1ryy	1ryy	1ryy	1ryy	1ryy	(8.d/L	sub-	.	8r	.	16r	.	2r	.	1ryy	1ryy	1ryy	1ryy	1ryy	1ryy	1r	.	1ryy	1r	.	1ryy	2r	.
.	.	.	.	.	.	.	.	.	.	.	.	.	.	.	(16B-/LL	.	.	.	.	.	.	.	.	.	.	.	.	.	.	.	.	.
8r	.	.	.	.	.	.	.	.	.	.	.	.	8E/	.	16c/	.	.	.	.	.	.	.	.	.	.	.	.	.	.	.	.	.
.	.	32e\LL	.	.	.	.	.	.	.	32e/LL	.	.	.	.	16g/JJ)	.	.	.	.	.	.	.	.	.	.	.	.	.	.	.	.	.
.	.	32d\JJJ	.	.	.	.	.	.	.	32d/JJJ)	.	.	.	.	.	.	.	.	.	.	.	.	.	.	.	.	.	.	.	.	.	.
8E\	.	8c\L	.	.	.	.	.	.	.	(8c/L	-le-	.	8r	.	16r	.	.	.	.	.	.	.	.	.	.	.	.	.	.	.	.	.
.	.	.	.	.	.	.	.	.	.	.	.	.	.	.	(16B-/LL	.	.	.	.	.	.	.	.	.	.	.	.	.	.	.	.	.
8r	.	8B-\J)	.	.	.	.	.	.	.	8B-/J)	.	.	8E/	.	16c/	.	.	.	.	.	.	.	.	.	.	.	.	.	.	.	.	.
.	.	.	.	.	.	.	.	.	.	.	.	.	.	.	16g/JJ)	.	.	.	.	.	.	.	.	.	.	.	.	.	.	.	.	.
8F\	.	(8.c\L	.	.	.	.	.	.	.	(8.c/L	-va-	.	8r	.	16r	.	(8.cc/L	.	.	.	.	.	.	.	.	.	.	.	.	.	(8.cccL 8.cc\	.
.	.	.	.	.	.	.	.	.	.	.	.	.	.	.	(16A/LL	.	.	.	.	.	.	.	.	.	.	.	.	.	.	.	.	.
8r	.	.	.	.	.	.	.	.	.	.	.	.	8F/	.	16c/	.	.	.	.	.	.	.	.	.	.	.	.	.	.	.	.	.
.	.	16B-\Jk	.	.	.	.	.	.	.	16B-/Jk)	.	.	.	.	16f/JJ)	.	16b-/Jk	.	.	.	.	.	.	.	.	.	.	.	.	.	16bb-Jk 16b-\	.
8F\	.	8A\)	.	.	.	.	.	.	.	8A/	-ri	.	8r	.	16r	.	8a/)	.	.	.	.	.	.	.	.	.	.	.	.	.	8aa 8a\)	.
.	.	.	.	.	.	.	.	.	.	.	.	.	.	.	(16A/LL	.	.	.	.	.	.	.	.	.	.	.	.	.	.	.	.	.
8r	.	8r	.	.	.	.	.	.	.	8r	.	.	8F/	.	16c/	.	8r	.	.	.	.	.	.	.	.	.	.	.	.	.	8r	.
.	.	.	.	.	.	.	.	.	.	.	.	.	.	.	16f/JJ)	.	.	.	.	.	.	.	.	.	.	.	.	.	.	.	.	.
=22	=22	=22	=22	=22	=22	=22	=22	=22	=22	=22	=22	=22	=22	=22	=22	=22	=22	=22	=22	=22	=22	=22	=22	=22	=22	=22	=22	=22	=22	=22	=22	=22
*	*	*	*	*	*	*	*	*	*	*	*	*	*	*	*	*	*	*	*	*	*	*	*	*	*^	*	*	*^	*	*	*^	*
*	*	*clefF4	*	*	*	*	*	*	*	*	*	*	*	*	*	*	*	*	*	*	*	*	*	*	*	*	*	*	*	*	*	*	*	*	*
8F\	.	8F\	.	1ryy	1ryy	1ryy	1ryy	1ryy	1ryy	4f/	mor-	.	8r	.	16r	.	8r	.	1ryy	1ryy	1ryy	1ryy	1ryy	1ryy	4F/	4F\	.	1ryy	2cc/	2a\	p	1ryy	(4ff/	1r	p <
.	.	.	.	.	.	.	.	.	.	.	.	.	.	.	(16A/LL	.	.	.	.	.	.	.	.	.	.	.	.	.	.	.	.	.	.	.	.
8r	.	8r	.	.	.	.	.	.	.	.	.	.	8A/	.	16c/	.	8f/	<	.	.	.	.	.	.	.	.	.	.	.	.	.	.	.	.	.
.	.	.	.	.	.	.	.	.	.	.	.	.	.	.	16f/JJ)	.	.	.	.	.	.	.	.	.	.	.	.	.	.	.	.	.	.	.	.
8D\	.	8D\	.	.	.	.	.	.	.	4f#X/	-te	.	8r	.	16r	.	8r	.	.	.	.	.	.	.	4F#X/	4D\	.	.	.	.	.	.	4ff#X/	.	.
.	.	.	.	.	.	.	.	.	.	.	.	.	.	.	(16A/LL	.	.	.	.	.	.	.	.	.	.	.	.	.	.	.	.	.	.	.	.
8r	.	8r	.	.	.	.	.	.	.	.	.	.	8A/	.	16c/	.	8f#X/	.	.	.	.	.	.	.	.	.	.	.	.	.	.	.	.	.	.
.	.	.	.	.	.	.	.	.	.	.	.	.	.	.	16f#X/JJ)	.	.	.	.	.	.	.	.	.	.	.	.	.	.	.	.	.	.	.	.
8BB-/	.	8BB-/	.	.	.	.	.	.	.	(8.g/L	Chri-	.	8r	.	16r	.	8r	.	.	.	.	.	.	.	4G/	4BB-\	.	.	(4dd/	4b-\	.	.	4gg/)	.	.
.	.	.	.	.	.	.	.	.	.	.	.	.	.	.	(16B-/LL	.	.	.	.	.	.	.	.	.	.	.	.	.	.	.	.	.	.	.	.
8r	.	8r	.	.	.	.	.	.	.	.	.	.	8B-/	.	16d/	.	8g/	[	.	.	.	.	.	.	.	.	.	.	.	.	.	.	.	.	.
.	.	.	.	.	.	.	.	.	.	16dd/Jk)	.	.	.	.	16g/JJ)	.	.	.	.	.	.	.	.	.	.	.	.	.	.	.	.	.	.	.	.
4BBn^/	.	4BBn^/	.	.	.	.	.	.	.	16dd\	-sti	.	4d 4Bn/	>]	4a-X^/	.	16r	.	.	.	.	.	.	.	4ryy	16A-X 16BBn\	.	.	16dd/)	16a-X\	.	.	16ddd/	.	[
.	.	.	.	.	.	.	.	.	.	(16dd\LL	con-	.	.	.	.	.	(16dd\LL	.	.	.	.	.	.	.	.	16r	.	.	16r	16ryy	.	.	16r	.	.
.	.	.	.	.	.	.	.	.	.	16ee\JJ)	.	.	.	.	.	.	16ee\	.	.	.	.	.	.	.	.	8r	.	.	8r	8ryy	.	.	8r	.	.
.	.	.	.	.	.	.	.	.	.	16ff\	-ser-	.	.	.	.	.	16ff\JJ)	.	.	.	.	.	.	.	.	.	.	.	.	.	.	.	.	.	.
!!LO:PB:g=original
*	*	*	*	*	*	*	*	*	*	*	*	*	*	*	*	*	*	*	*	*	*	*	*	*	*v	*v	*	*	*	*	*	*	*v	*v	*
=23	=23	=23	=23	=23	=23	=23	=23	=23	=23	=23	=23	=23	=23	=23	=23	=23	=23	=23	=23	=23	=23	=23	=23	=23	=23	=23	=23	=23	=23	=23	=23	=23	=23
8C/	.	8C/	.	1ryy	1ryy	1ryy	1ryy	1ryy	1ryy	([4cc\	-va-	.	8r	.	16r	.	2r	.	1ryy	1ryy	1ryy	1ryy	1ryy	1ryy	1r	.	1ryy	1r	8ryy	.	1ryy	1r	.
.	.	.	.	.	.	.	.	.	.	.	.	.	.	.	(16c/LL	.	.	.	.	.	.	.	.	.	.	.	.	.	.	.	.	.	.
8r	.	8r	.	.	.	.	.	.	.	.	.	.	8c\	.	16f/	.	.	.	.	.	.	.	.	.	.	.	.	.	8r	.	.	.	.
.	.	.	.	.	.	.	.	.	.	.	.	.	.	.	16an/JJ)	.	.	.	.	.	.	.	.	.	.	.	.	.	.	.	.	.	.
8C/	.	8C/	.	.	.	.	.	.	.	16cc\LL]	.	.	8r	.	16r	.	.	.	.	.	.	.	.	.	.	.	.	.	4r	.	.	.	.
.	.	.	.	.	.	.	.	.	.	32dd\L	.	.	.	.	(16A/LL	.	.	.	.	.	.	.	.	.	.	.	.	.	.	.	.	.	.
.	.	.	.	.	.	.	.	.	.	32cc\JJJ	.	.	.	.	.	.	.	.	.	.	.	.	.	.	.	.	.	.	.	.	.	.	.
8r	.	8r	.	.	.	.	.	.	.	32b-/LLL	.	.	8A/	.	16c/	.	.	.	.	.	.	.	.	.	.	.	.	.	.	.	.	.	.
.	.	.	.	.	.	.	.	.	.	32a/	.	.	.	.	.	.	.	.	.	.	.	.	.	.	.	.	.	.	.	.	.	.	.
.	.	.	.	.	.	.	.	.	.	32g/	.	.	.	.	16f/JJ)	.	.	.	.	.	.	.	.	.	.	.	.	.	.	.	.	.	.
.	.	.	.	.	.	.	.	.	.	32f/JJJ	.	.	.	.	.	.	.	.	.	.	.	.	.	.	.	.	.	.	.	.	.	.	.
8C/	.	8C/	.	.	.	.	.	.	.	8e/	.	.	8r	.	16r	.	4r	.	.	.	.	.	.	.	.	.	.	.	2r	.	.	.	.
.	.	.	.	.	.	.	.	.	.	.	.	.	.	.	(16B-/LL	.	.	.	.	.	.	.	.	.	.	.	.	.	.	.	.	.	.
8r	.	8r	.	.	.	.	.	.	.	4a/	.	>	8G/	.	16c/	.	.	.	.	.	.	.	.	.	.	.	.	.	.	.	.	.	.
.	.	.	.	.	.	.	.	.	.	.	.	.	.	.	16e/JJ)	.	.	.	.	.	.	.	.	.	.	.	.	.	.	.	.	.	.
8C/	.	8C/	.	.	.	.	.	.	.	.	.	.	8r	.	16r	.	8r	.	.	.	.	.	.	.	.	.	.	.	.	.	.	.	.
.	.	.	.	.	.	.	.	.	.	.	.	.	.	.	(16B-/LL	.	.	.	.	.	.	.	.	.	.	.	.	.	.	.	.	.	.
8r	.	8r	.	.	.	.	.	.	.	8g/)	.	]	8G/	.	16c/	.	8e 8G/	.	.	.	.	.	.	.	.	.	.	.	.	.	.	.	.
.	.	.	.	.	.	.	.	.	.	.	.	.	.	.	16B-/JJ)	.	.	.	.	.	.	.	.	.	.	.	.	.	.	.	.	.	.
*	*	*	*	*	*	*	*	*	*	*	*	*	*	*	*	*	*	*	*	*	*	*	*	*	*	*	*	*v	*v	*	*	*	*
=24	=24	=24	=24	=24	=24	=24	=24	=24	=24	=24	=24	=24	=24	=24	=24	=24	=24	=24	=24	=24	=24	=24	=24	=24	=24	=24	=24	=24	=24	=24	=24	=24
8F\	.	8F\	.	1ryy	1ryy	1ryy	1ryy	1ryy	1ryy	8f/	-ri	.	8F/	.	8c/	.	8f 8A/	.	1ryy	1ryy	1ryy	1ryy	1ryy	1ryy	8r	.	1ryy	8r	.	1ryy	8r	.
16.A\LL	f	16.A\LL	f	.	.	.	.	.	.	8r	.	.	16.c\LL	f	16.f/LL	.	16.cc\LL	f	.	.	.	.	.	.	16.cLL 16.A\	f	.	16.ccLL 16.f/	f	.	16.cccLL 16.ff\	f
32A\JJk	.	32A\JJk	.	.	.	.	.	.	.	.	.	.	32c\JJk	.	32f/JJk	.	32cc\JJk	.	.	.	.	.	.	.	32cJJk 32A\	.	.	32ccJJk 32f/	.	.	32cccJJk 32ff\	.
16.G\LL	.	16.G\LL	.	.	.	.	.	.	.	4r	.	.	16.c\LL	.	16.e/LL	.	16.b-\LL	.	.	.	.	.	.	.	16.cLL 16.G\	.	.	16.b-LL 16.e/	.	.	16.bb-LL 16.ee\	.
32G\JJk	.	32G\JJk	.	.	.	.	.	.	.	.	.	.	32c\JJk	.	32e/JJk	.	32b-\JJk	.	.	.	.	.	.	.	32cJJk 32G\	.	.	32b-JJk 32e/	.	.	32bb-JJk 32ee\	.
16.F\LL	.	16.F\LL	.	.	.	.	.	.	.	.	.	.	16.c\LL	.	16.f/LL	.	16.a/LL	.	.	.	.	.	.	.	16.cLL 16.F\	.	.	16.aLL 16.f/	.	.	16.aaLL 16.ff\	.
32F\JJk	.	32F\JJk	.	.	.	.	.	.	.	.	.	.	32c\JJk	.	32f/JJk	.	32a/JJk	.	.	.	.	.	.	.	32cJJk 32F\	.	.	32aJJk 32f/	.	.	32aaJJk 32ff\	.
8C/	.	8C/	.	.	.	.	.	.	.	8r	.	.	8c\	.	8e/	.	8g/	.	.	.	.	.	.	.	8c 8C\	.	.	8g 8e/	.	.	8gg 8ee\	.
16.D/LL	p	16.D/LL	p	.	.	.	.	.	.	16.f/	Cum-	.	16.A/LL	p	16.d/LL	.	16.f/LL	p	.	.	.	.	.	.	8r	.	.	8r	.	.	8r	.
32BB-/JJk	.	32BB-/JJk	.	.	.	.	.	.	.	32g/	-me-	.	32B-/JJk	.	32d/JJk	.	32g/JJk	.	.	.	.	.	.	.	.	.	.	.	.	.	.	.
16C/	.	16C/	.	.	.	.	.	.	.	16c/	-la-	.	16A/	.	16c/	.	16c/	.	.	.	.	.	.	.	4r	.	.	4r	.	.	4r	.
16r	.	16r	.	.	.	.	.	.	.	16f/	-ri	.	16r	.	16r	.	16r	.	.	.	.	.	.	.	.	.	.	.	.	.	.	.
16C/	.	16C/	.	.	.	.	.	.	.	16.a/	gra-	.	16A/	.	16c/	.	16e/	.	.	.	.	.	.	.	.	.	.	.	.	.	.	.
16r	.	16r	.	.	.	.	.	.	.	.	.	.	16r	.	16r	.	16r	.	.	.	.	.	.	.	.	.	.	.	.	.	.	.
.	.	.	.	.	.	.	.	.	.	32g/	-ti-	.	.	.	.	.	.	.	.	.	.	.	.	.	.	.	.	.	.	.	.	.
!!LO:LB:g=original
=25	=25	=25	=25	=25	=25	=25	=25	=25	=25	=25	=25	=25	=25	=25	=25	=25	=25	=25	=25	=25	=25	=25	=25	=25	=25	=25	=25	=25	=25	=25	=25	=25
8F\	.	8F\	.	1ryy	1ryy	1ryy	1ryy	1ryy	1ryy	8f/	-a	.	8A/	.	8c/	.	8f/	.	1ryy	1ryy	1ryy	1ryy	1ryy	1ryy	8r	.	1ryy	8r	.	1ryy	8r	.
16.A\LL	f	16.A\LL	f	.	.	.	.	.	.	8r	.	.	16.c\LL	f	16.f/LL	.	16.cc\LL	f	.	.	.	.	.	.	16.cLL 16.A\	f	.	16.ccLL 16.f/	.	.	16.cccLL 16.ff\	.
32A\JJk	.	32A\JJk	.	.	.	.	.	.	.	.	.	.	32c\JJk	.	32f/JJk	.	32cc\JJk	.	.	.	.	.	.	.	32cJJk 32A\	.	.	32ccJJk 32f/	.	.	32cccJJk 32ff\	.
16.G\LL	.	16.G\LL	.	.	.	.	.	.	.	4r	.	.	16.c\LL	.	16.e/LL	.	16.b-\LL	.	.	.	.	.	.	.	16.cLL 16.G\	.	.	16.b-LL 16.e/	.	.	16.bb-LL 16.ee\	.
32G\JJk	.	32G\JJk	.	.	.	.	.	.	.	.	.	.	32c\JJk	.	32e/JJk	.	32b-\JJk	.	.	.	.	.	.	.	32cJJk 32G\	.	.	32b-JJk 32e/	.	.	32bb-K 32ee\	.
16.F\LL	.	16.F\LL	.	.	.	.	.	.	.	.	.	.	16.c\LL	.	16.f/LL	.	16.a/LL	.	.	.	.	.	.	.	16.cLL 16.F\	.	.	16.aLL 16.f/	.	.	16.aa 16.ff\	.
32F\JJk	.	32F\JJk	.	.	.	.	.	.	.	.	.	.	32c\JJk	.	32f/JJk	.	32a/JJk	.	.	.	.	.	.	.	32cJJk 32F\	.	.	32aJJk 32f/	.	.	32aaJJk 32ff\	.
8C/	.	8C/	.	.	.	.	.	.	.	8r	.	.	8c\	.	8e/	.	8g/	.	.	.	.	.	.	.	8c 8C\	.	.	8g 8e/	.	.	8gg 8ee\	.
16.D/LL	p	16.D/LL	p	.	.	.	.	.	.	16.f/	Cum-	.	16.A/LL	.	16.d/LL	p	16.f/LL	p	.	.	.	.	.	.	8r	.	.	8r	.	.	8r	.
32BB-/JJk	.	32BB-/JJk	.	.	.	.	.	.	.	32g/	-me-	.	32B-/JJk	.	32d/JJk	.	32g/JJk	.	.	.	.	.	.	.	.	.	.	.	.	.	.	.
16C/	.	16C/	.	.	.	.	.	.	.	16c/	-la-	.	16A/	.	16c/	.	16c/	.	.	.	.	.	.	.	4r	.	.	4r	.	.	4r	.
16r	.	16r	.	.	.	.	.	.	.	16f/	-ri	.	16r	.	16r	.	16r	.	.	.	.	.	.	.	.	.	.	.	.	.	.	.
16C/	.	16C/	.	.	.	.	.	.	.	16.a/	gra-	.	16B-/	.	16c/	.	16e/	.	.	.	.	.	.	.	.	.	.	.	.	.	.	.
16r	.	16r	.	.	.	.	.	.	.	.	.	.	16r	.	16r	.	16r	.	.	.	.	.	.	.	.	.	.	.	.	.	.	.
.	.	.	.	.	.	.	.	.	.	32g/	-ti-	.	.	.	.	.	.	.	.	.	.	.	.	.	.	.	.	.	.	.	.	.
=26	=26	=26	=26	=26	=26	=26	=26	=26	=26	=26	=26	=26	=26	=26	=26	=26	=26	=26	=26	=26	=26	=26	=26	=26	=26	=26	=26	=26	=26	=26	=26	=26
*	*	*	*	*	*	*	*	*	*	*	*	*	*	*	*	*	*	*	*	*	*	*	*	*	*	*	*	*^	*	*	*^	*
16F\	.	16F\	.	1ryy	1ryy	1ryy	1ryy	1ryy	1ryy	8f/	-a	.	8A/	.	8c/	.	8f/	.	1ryy	1ryy	1ryy	1ryy	1ryy	1ryy	8r	.	1ryy	8r	8ryy	.	1ryy	8r	8ryy	.
16r	.	16r	.	.	.	.	.	.	.	.	.	.	.	.	.	.	.	.	.	.	.	.	.	.	.	.	.	.	.	.	.	.	.	.
16BB-/	.	16BB-/	.	.	.	.	.	.	.	(8dd-X\L	gra-	.	16r	.	16r	.	16r	.	.	.	.	.	.	.	(8BB-\L	.	.	8dd-X/L	8b-\L	.	.	4ryy	8ddd-XL 8bb-\	.
16r	.	16r	.	.	.	.	.	.	.	.	.	.	16f\	.	16b-\	.	16dd-X\	.	.	.	.	.	.	.	.	.	.	.	.	.	.	.	.	.
16C/	.	16C/	.	.	.	.	.	.	.	8cc\J)	.	.	16r	.	16r	.	16r	.	.	.	.	.	.	.	8C\J)	.	.	8cc/J	8a\J	.	.	.	8cccJ 8aa\	.
16r	.	16r	.	.	.	.	.	.	.	.	.	.	16f\	.	16a/	.	16cc\	.	.	.	.	.	.	.	.	.	.	.	.	.	.	.	.	.
16C#X/	.	16C#X/	.	.	.	.	.	.	.	8ee\	-ti-	.	16r	.	16r	.	16r	.	.	.	.	.	.	.	(8C#X\L	.	.	8ee/L	8b-\L	.	.	8eee/L	8bb-\L	.
16r	.	16r	.	.	.	.	.	.	.	.	.	.	16g\	.	16b-\	.	16ee\	.	.	.	.	.	.	.	.	.	.	.	.	.	.	.	.	.
16D\	.	16D\	.	.	.	.	.	.	.	(16gg\LL	-a	.	16r	.	16r	.	16r	.	.	.	.	.	.	.	8D\J)	.	.	16gg/L	8a\J	.	.	(16ggg/L	8aa\J	.
16r	.	16r	.	.	.	.	.	.	.	16ff\JJ)	.	.	16f\	.	16a/	.	16ff\	.	.	.	.	.	.	.	.	.	.	16ff/JJ	.	.	.	16fff/JJ)	.	.
16BBn/	.	16BBn/	.	.	.	.	.	.	.	16ee\	cum-	.	16r	.	16r	.	16r	.	.	.	.	.	.	.	(8BBn\L	.	.	16ee/LL	8a-X\L	.	.	(16eee/LL	8aa\L	.
16r	.	16r	.	.	.	.	.	.	.	16ddn\	-me-	.	16f\	.	16a-X/	.	16ddn\	.	.	.	.	.	.	.	.	.	.	16ddn/JJ	.	.	.	16fffn/JJ)	.	.
16Cn/	.	16Cn/	.	.	.	.	.	.	.	16.cc\	-la-	.	16r	.	16r	.	16r	.	.	.	.	.	.	.	8C#\J)	.	.	8cc/	8an\J	.	.	8ccc/	8bb-\J	.
16r	.	16r	.	.	.	.	.	.	.	.	.	.	16f\	.	16an/	.	16cc\	.	.	.	.	.	.	.	.	.	.	.	.	.	.	.	.	.
.	.	.	.	.	.	.	.	.	.	32f/	-ri	.	.	.	.	.	.	.	.	.	.	.	.	.	.	.	.	.	.	.	.	.	.	.
16C/	.	16C/	.	.	.	.	.	.	.	16.a/	gra-	.	16r	.	16r	.	16r	.	.	.	.	.	.	.	8r	.	.	8r	8ryy	.	.	8r	8ryy	.
16r	.	16r	.	.	.	.	.	.	.	.	.	.	16B-/	.	16c/	.	16e/	.	.	.	.	.	.	.	.	.	.	.	.	.	.	.	.	.
.	.	.	.	.	.	.	.	.	.	32g/	-ti-	.	.	.	.	.	.	.	.	.	.	.	.	.	.	.	.	.	.	.	.	.	.	.
!!LO:PB:g=original
*	*	*	*	*	*	*	*	*	*	*	*	*	*	*	*	*	*	*	*	*	*	*	*	*	*	*	*	*v	*v	*	*	*v	*v	*
=27	=27	=27	=27	=27	=27	=27	=27	=27	=27	=27	=27	=27	=27	=27	=27	=27	=27	=27	=27	=27	=27	=27	=27	=27	=27	=27	=27	=27	=27	=27	=27	=27
8F\	.	8F\	.	1ryy	1ryy	1ryy	1ryy	1ryy	1ryy	8f/	-a	.	8A/	.	8c/	.	8f/	.	1ryy	1ryy	1ryy	1ryy	1ryy	1ryy	1ryy	.	1ryy	1ryy	.	1ryy	1ryy	.
4BB-^/	.	4BB-^/	.	.	.	.	.	.	.	4d-X^/	cum-	.	4B-X/	.	4d-X/	.	4d-X'^/	.	.	.	.	.	.	.	.	.	.	.	.	.	.	.
8D-X\	.	8D-X\	.	.	.	.	.	.	.	8f/	-me-	.	8F/	.	8B-/	.	8f'/	.	.	.	.	.	.	.	.	.	.	.	.	.	.	.
2C/	.	2C/	.	.	.	.	.	.	.	8c/	-la-	.	4F/	.	4A/	.	8c'/L	.	.	.	.	.	.	.	.	.	.	.	.	.	.	.
.	.	.	.	.	.	.	.	.	.	8f'/	-ri	.	.	.	.	.	8f'/J	.	.	.	.	.	.	.	.	.	.	.	.	.	.	.
.	.	.	.	.	.	.	.	.	.	(16f/LL	gra-	.	4G/	.	4B-/	.	(16f/LL	.	.	.	.	.	.	.	.	.	.	.	.	.	.	.
.	.	.	.	.	.	.	.	.	.	16e/	.	.	.	.	.	.	16e/	.	.	.	.	.	.	.	.	.	.	.	.	.	.	.
.	.	.	.	.	.	.	.	.	.	16d-/JJ)	.	.	.	.	.	.	16d-/	.	.	.	.	.	.	.	.	.	.	.	.	.	.	.
.	.	.	.	.	.	.	.	.	.	16e/	-ti-	.	.	.	.	.	16e/JJ)	.	.	.	.	.	.	.	.	.	.	.	.	.	.	.
=28	=28	=28	=28	=28	=28	=28	=28	=28	=28	=28	=28	=28	=28	=28	=28	=28	=28	=28	=28	=28	=28	=28	=28	=28	=28	=28	=28	=28	=28	=28	=28	=28
16F\	.	16F\	.	1ryy	1ryy	1ryy	1ryy	1ryy	1ryy	8f/	-a.	.	16F/	.	16A/	.	16f/	.	1ryy	1ryy	1ryy	1ryy	1ryy	1ryy	1ryy	.	1ryy	1ryy	.	1ryy	1ryy	.
16r	.	16r	.	.	.	.	.	.	.	.	.	.	16r	.	16r	.	16r	.	.	.	.	.	.	.	.	.	.	.	.	.	.	.
(8F\L	.	(8F\L	.	.	.	.	.	.	.	8r	.	.	(8B-/L	.	(8d-X/L	.	(16e^/LL	.	.	.	.	.	.	.	.	.	.	.	.	.	.	.
.	.	.	.	.	.	.	.	.	.	.	.	.	.	.	.	.	32f/L	.	.	.	.	.	.	.	.	.	.	.	.	.	.	.
.	.	.	.	.	.	.	.	.	.	.	.	.	.	.	.	.	32g/JJJ	.	.	.	.	.	.	.	.	.	.	.	.	.	.	.
16F\Jk)	.	16F\Jk)	.	.	.	.	.	.	.	4r	.	.	16A/Jk)	.	16c/Jk)	.	16f/)	.	.	.	.	.	.	.	.	.	.	.	.	.	.	.
16r	.	16r	.	.	.	.	.	.	.	.	.	.	16r	.	16r	.	16r	.	.	.	.	.	.	.	.	.	.	.	.	.	.	.
(8F\L	.	(8F\L	.	.	.	.	.	.	.	.	.	.	(8B-/L	.	(8d-/L	.	(16e^/LL	.	.	.	.	.	.	.	.	.	.	.	.	.	.	.
.	.	.	.	.	.	.	.	.	.	.	.	.	.	.	.	.	32f/L	.	.	.	.	.	.	.	.	.	.	.	.	.	.	.
.	.	.	.	.	.	.	.	.	.	.	.	.	.	.	.	.	32g/JJJ	.	.	.	.	.	.	.	.	.	.	.	.	.	.	.
16F\Jk)	.	16F\Jk)	.	.	.	.	.	.	.	2r	.	.	16A/Jk)	.	16c/Jk)	.	16f/)	.	.	.	.	.	.	.	.	.	.	.	.	.	.	.
16r	.	16r	.	.	.	.	.	.	.	.	.	.	16r	.	16r	.	16r	.	.	.	.	.	.	.	.	.	.	.	.	.	.	.
16F\	.	16F\	.	.	.	.	.	.	.	.	.	.	16f\	.	8r	.	8r	.	.	.	.	.	.	.	.	.	.	.	.	.	.	.
16r	.	16r	.	.	.	.	.	.	.	.	.	.	16r	.	.	.	.	.	.	.	.	.	.	.	.	.	.	.	.	.	.	.
16C/	.	16C/	.	.	.	.	.	.	.	.	.	.	16c\	.	16c/	.	16f 16A/	.	.	.	.	.	.	.	.	.	.	.	.	.	.	.
16r	.	16r	.	.	.	.	.	.	.	.	.	.	16r	.	16r	.	16r	.	.	.	.	.	.	.	.	.	.	.	.	.	.	.
16AA/	.	16AA/	.	.	.	.	.	.	.	.	.	.	16A/	.	8r	.	8r	.	.	.	.	.	.	.	.	.	.	.	.	.	.	.
16r	.	16r	.	.	.	.	.	.	.	.	.	.	16r	.	.	.	.	.	.	.	.	.	.	.	.	.	.	.	.	.	.	.
!!LO:LB:g=original
=29	=29	=29	=29	=29	=29	=29	=29	=29	=29	=29	=29	=29	=29	=29	=29	=29	=29	=29	=29	=29	=29	=29	=29	=29	=29	=29	=29	=29	=29	=29	=29	=29
4FF/	.	4FF/	.	1ryy	1ryy	1ryy	1ryy	1ryy	1ryy	1ryy	.	.	4F/	.	4c/	.	4f 4A/	.	1ryy	1ryy	1ryy	1ryy	1ryy	1ryy	1ryy	.	1ryy	1ryy	.	1ryy	1ryy	.
4r	.	4r	.	.	.	.	.	.	.	.	.	.	4r	.	4r	.	4r	.	.	.	.	.	.	.	.	.	.	.	.	.	.	.
2r;	.	2r;	.	.	.	.	.	.	.	.	.	.	2r;	.	2r;	.	2rg;	.	.	.	.	.	.	.	.	.	.	.	.	.	.	.
==	==	==	==	==	==	==	==	==	==	==	==	==	==	==	==	==	==	==	==	==	==	==	==	==	==	==	==	==	==	==	==	==
*-	*-	*-	*-	*-	*-	*-	*-	*-	*-	*-	*-	*-	*-	*-	*-	*-	*-	*-	*-	*-	*-	*-	*-	*-	*-	*-	*-	*-	*-	*-	*-	*-
!!title: @{OTL};
!!!RDF**kern: > = above
!!!RDF**kern: < = below
!!!RDF**dynam: > = "dim", fontstyle= "bold-italic"
!!!RDF**dynam: < = "cresc", fontstyle= "bold-italic"
!!!RDF**kern: | = vertical stroke
!!!RDF**kern: N = linked
!!!RDF**kern: i = editorial accidental
!!!ENC: Andrzej Gręziak
!!!END: 2021-07-30
!!!EED: Wojciech Jakubiak-Danek
!!!EST: 2021-09-10
!!!URL-scan: http://repozytorium.nifc.pl/skany/pl-wtm-nut--r1564
!!!ONB-nifc: UWAGA: części Stabat Mater: 1. Andante, 2. Andantino, 3. Aria (Adagio), 4. Adagio, 5. Aria per il Basso, 6. Adagio, 7. Larghetto, 8. Aria per il Tenore, 9. Duetino (per il Soprano e Alto con Choro), 10. Arietta per il Alto, 11. Andantino (w źródle jako No. 10 ½), 12. Finale (w źródle jako No. 11)
